!!!COM: Beethoven, Ludwig van
!!!CDT: 1770///-1827///
!!!ODT: 1806///
!!!OTL: String Quartet No. 8 in E Minor, Op. 59, No. 2
!!!OPS: Op. 59
!!!ONM: No. 2
!!!OMV: Mvmt. 2
!!!OMD: Molto adagio
!!!PDT: 1808///
!!!PPP: Vienna
!!!ODE: Dem Grafen Rasoumoffsky gewidmet
!!!ONB: Op. 59 are called the Rasumovsky Quartets
!!!MPD: 1806///
**kern	**dynam	**kern	**dynam	**kern	**dynam	**kern	**dynam
*staff4	*staff4	*staff3	*staff3	*staff2	*staff2	*staff1	*staff1
*Icello	*Icello	*Iviola	*Iviola	*Ivioln	*Ivioln	*Ivioln	*Ivioln
*clefF4	*clefF4	*clefC3	*clefC3	*clefG2	*clefG2	*clefG2	*clefG2
*k[f#c#g#d#]	*k[f#c#g#d#]	*k[f#c#g#d#]	*k[f#c#g#d#]	*k[f#c#g#d#]	*k[f#c#g#d#]	*k[f#c#g#d#]	*k[f#c#g#d#]
*E:	*E:	*E:	*E:	*E:	*E:	*E:	*E:
*met(C)	*met(C)	*met(C)	*met(C)	*met(C)	*met(C)	*met(C)	*met(C)
*M4/4	*M4/4	*M4/4	*M4/4	*M4/4	*M4/4	*M4/4	*M4/4
*MM54	*MM54	*MM54	*MM54	*MM54	*MM54	*MM54	*MM54
=1-	=1-	=1-	=1-	=1-	=1-	=1-	=1-
1r	.	1r	.	2r	.	(2e/	p
.	.	.	.	(2B/	p	2d#/	.
=2	=2	=2	=2	=2	=2	=2	=2
2r	.	(2F#/	p	2A/	.	2f#/	.
(2C#/	.	2c#/)	.	2G#/)	.	2e/)	.
=3	=3	=3	=3	=3	=3	=3	=3
2Cn/	p	(2F#/	.	(2d#/	.	(2a/	.
4BB/	.	4E/	.	4e/	.	4g#/	.
4AA/	.	4F#/)	.	4c#/)	.	8.b/L	.
.	.	.	.	.	.	16a/Jk)	.
=4	=4	=4	=4	=4	=4	=4	=4
2.BB/)	.	(4G#/	.	(2e/	.	(2g#/	.
.	.	4A#/	.	.	.	.	.
.	.	4B/)	.	4d#/)	.	4f#/)	.
4r	.	4r	.	[4dn/	.	4r	.
=5	=5	=5	=5	=5	=5	=5	=5
1r	.	2r	.	(2d/]	.	(2b/	.
.	.	[2An/	.	2c#/)	.	2a/	.
=6	=6	=6	=6	=6	=6	=6	=6
(2BB/	<	(2A/]	<	2d#/	<	2f#/	<
2BB#/	.	2G#/)	.	2d#/	.	2g#/)	.
=7	=7	=7	=7	=7	=7	=7	=7
2C#/)	f	2E/	f	2A#/	f	2e/	f
2BBn/	>	2D#/	>	2An/	.	4..f#/	>
.	.	.	.	.	.	16g#/	.
=8	=8	=8	=8	=8	=8	=8	=8
4EE/	.	(4E/	.	(4G#/	.	4e/	.
4r	p	4B/	p	4b/	p	4r	p
(4BB/	.	4A/	.	4a/	.	4r	.
4AA/	.	4F#/	.	4f#/	.	[8B/L	.
.	.	.	.	.	.	16B'/L]	.
.	.	.	.	.	.	16B'/JJ	.
=9	=9	=9	=9	=9	=9	=9	=9
(2GG#/)	.	(2E/)	.	(2e/)	.	4B/	.
.	.	.	.	.	.	[8b/L	.
.	.	.	.	.	.	16b'/L]	.
.	.	.	.	.	.	16b'/JJ	.
2FF#/	.	2D#/	.	2d#/	.	[8a/L	.
.	.	.	.	.	.	16a'/L]	.
.	.	.	.	.	.	16g#'/JJ	.
.	.	.	.	.	.	[8f#/L	.
.	.	.	.	.	.	16f#'/L]	.
.	.	.	.	.	.	16e'/JJ	.
=10	=10	=10	=10	=10	=10	=10	=10
2AA/	.	2F#/	.	2f#/	.	4d#/	.
.	.	.	.	.	.	[8cc#\L	.
.	.	.	.	.	.	16cc#'\L]	.
.	.	.	.	.	.	16cc#'\JJ	.
2GG#/)	.	2E/)	.	2e/)	.	[8cc#\L	.
.	.	.	.	.	.	16cc#'\L]	.
.	.	.	.	.	.	16b'\JJ	.
.	.	.	.	.	.	[8ee\L	.
.	.	.	.	.	.	16ee'\L]	.
.	.	.	.	.	.	16gg#'\JJ	.
=11	=11	=11	=11	=11	=11	=11	=11
(2BB#/	.	(2A/	.	(2a/	.	[8gg#\L	.
.	.	.	.	.	.	16gg#'\L]	.
.	.	.	.	.	.	16ff#'\JJ	.
.	.	.	.	.	.	[8ee\L	.
.	.	.	.	.	.	16ee'\L]	.
.	.	.	.	.	.	16dd#'\JJ	.
2C#/)	.	4G#/	.	4g#/	.	[8ee/L	.
.	.	.	.	.	.	16ee'/L]	.
.	.	.	.	.	.	16e'/JJ	.
.	.	8.B/L	.	8.b/L	.	[8d#/L	.
.	.	.	.	.	.	16d#'/L]	.
.	.	16A/Jk)	.	16a/Jk)	.	16e'/JJ	.
=12	=12	=12	=12	=12	=12	=12	=12
2.BBn/	.	(2G#/	.	(2g#/	.	[8e/L	.
.	.	.	.	.	.	16e'/L]	.
.	.	.	.	.	.	16f#'/JJ	.
.	.	.	.	.	.	[8g#/L	.
.	.	.	.	.	.	16g#'/L]	.
.	.	.	.	.	.	16a#'/JJ	.
.	.	4F#/)	.	4f#/)	.	[8a#/L	.
.	.	.	.	.	.	16a#'/L]	.
.	.	.	.	.	.	16b'/JJ	.
4r	.	4r	.	4r	.	[8b\L	.
.	.	.	.	.	.	16b'\L]	.
.	.	.	.	.	.	16b'\JJ	.
=13	=13	=13	=13	=13	=13	=13	=13
(2E#\	.	(2B/	.	(2b/	.	[8b\L	.
.	.	.	.	.	.	16b'\L]	.
.	.	.	.	.	.	16b#'\JJ	.
.	.	.	.	.	.	[8b#\L	.
.	.	.	.	.	.	16b#'\L]	.
.	.	.	.	.	.	16cc#'\JJ	.
2F#\	.	2A/	.	2a/	.	[8cc#\L	.
.	.	.	.	.	.	16cc#'\L]	.
.	.	.	.	.	.	16dd#'\JJ	.
.	.	.	.	.	.	[8ee\L	.
.	.	.	.	.	.	16ee'\L]	.
.	.	.	.	.	.	16ff#'\JJ	.
=14	=14	=14	=14	=14	=14	=14	=14
1BB#)	<	2F#/	<	2f#/	<	[8gg#\L	<
.	.	.	.	.	.	16gg#'\L]	.
.	.	.	.	.	.	16gg#'\JJ	.
.	.	.	.	.	.	[8aan\L	.
.	.	.	.	.	.	16aa'\L]	.
.	.	.	.	.	.	16gg#'\JJ	.
.	.	2G#/)	.	2g#/)	.	[8gg#\L	.
.	.	.	.	.	.	16gg#'\L]	.
.	.	.	.	.	.	16ff#'\JJ	.
.	.	.	.	.	.	[8ee\L	.
.	.	.	.	.	.	16ee'\L]	.
.	.	.	.	.	.	16dd#'\JJ	.
=15	=15	=15	=15	=15	=15	=15	=15
2C#/	.	2E/	f	2e/	.	[8ee\L	.
.	.	.	.	.	.	16ee'\L]	f
.	.	.	.	.	.	16cc#'\JJ	.
.	.	.	.	.	.	[8bn/L	.
.	.	.	.	.	.	16b'/L]	.
.	.	.	.	.	.	16a#'/JJ	.
2BB/	f	4..F#/	.	4..f#/	f	[8an/L	.
.	.	.	.	.	.	16a'/L]	>
.	.	.	.	.	.	16f#'/JJ	.
.	.	.	.	.	.	[8d#/L	.
.	.	.	.	.	.	16d#'/L]	.
.	.	16G#/	>	16g#/	.	16B'/JJ	.
=16	=16	=16	=16	=16	=16	=16	=16
4EE/	>	4E/	p	4e/	p	8e'/L	.
.	.	.	.	.	.	16r	p
.	.	.	.	.	.	16g#'/k	.
4r	.	4r	.	4r	.	8e'/	.
.	.	.	.	.	.	16r	.
.	.	.	.	.	.	16g#'/Jk	.
2r	.	2r	.	2r	.	8B'/L	.
.	.	.	.	.	.	16r	.
.	.	.	.	.	.	16g#'/k	.
.	.	.	.	.	.	8e'/	.
.	.	.	.	.	.	16r	.
.	.	.	.	.	.	16g#'/Jk	.
=17	=17	=17	=17	=17	=17	=17	=17
1r	.	1r	.	(2b\	.	8B'/L	.
.	.	.	.	.	.	16r	.
.	.	.	.	.	.	16a'/k	.
.	.	.	.	.	.	8f#'/	.
.	.	.	.	.	.	16r	.
.	.	.	.	.	.	16a'/Jk	.
.	.	.	.	2dd#\	.	8B'/L	.
.	.	.	.	.	.	16r	.
.	.	.	.	.	.	16a'/k	.
.	.	.	.	.	.	8f#'/	.
.	.	.	.	.	.	16r	.
.	.	.	.	.	.	16a'/Jk	.
=18	=18	=18	=18	=18	=18	=18	=18
1r	.	(2E/	.	2.ee\	.	8B'/L	.
.	.	.	.	.	.	16r	.
.	.	.	.	.	.	16g#'/k	.
.	.	.	.	.	.	8e'/	.
.	.	.	.	.	.	16r	.
.	.	.	.	.	.	16g#'/Jk	.
.	.	2G#/)	.	.	.	8B'/L	.
.	.	.	.	.	.	16r	.
.	.	.	.	.	.	16g#'/k	.
.	.	.	.	8.dd#\L	.	8e'/	.
.	.	.	.	.	.	16r	.
.	.	.	.	16cc#\Jk)	.	16g#'/Jk	.
=19	=19	=19	=19	=19	=19	=19	=19
(2BB/	.	1B	.	(4b\	.	8B'/L	.
.	.	.	.	.	.	16r	.
.	.	.	.	.	.	16f#'/k	.
.	.	.	.	8.ff#\L	.	8d#'/	.
.	.	.	.	.	.	16r	.
.	.	.	.	16dd#\Jk	.	16f#'/Jk	.
2D#/)	.	.	.	4b\	.	8B'/L	.
.	.	.	.	.	.	16r	.
.	.	.	.	.	.	16a'/k	.
.	.	.	.	8.cc#\L	.	8f#'/	.
.	.	.	.	.	.	16r	.
.	.	.	.	16a\Jk)	.	16a'/Jk	.
=20	=20	=20	=20	=20	=20	=20	=20
1E	.	(4B/	.	1g#	.	8B'/L	.
.	.	.	.	.	.	16r	.
.	.	.	.	.	.	16e'/k	.
.	.	8.g#\L	.	.	.	8B'/	.
.	.	.	.	.	.	16r	.
.	.	16e\Jk	.	.	.	16e'/Jk	.
.	.	4c#\	.	.	.	8G#'/L	.
.	.	.	.	.	.	16r	.
.	.	.	.	.	.	16e/k	.
.	.	8.e\L	.	.	.	8c#'/	.
.	.	.	.	.	.	16r	.
.	.	16c#\Jk)	.	.	.	16e'/Jk	.
=21	=21	=21	=21	=21	=21	=21	=21
(2BB#/	.	(2G#/	.	8G#'/L	.	(2g#/	.
.	.	.	.	16r	.	.	.
.	.	.	.	16f#'/k	.	.	.
.	.	.	.	8d#'/	.	.	.
.	.	.	.	16r	.	.	.
.	.	.	.	16f#'/Jk	.	.	.
2GG#/)	.	2F#/)	.	8G#'/L	.	2b#/)	.
.	.	.	.	16r	.	.	.
.	.	.	.	16d#'/k	.	.	.
.	.	.	.	8B#'/	.	.	.
.	.	.	.	16r	.	.	.
.	.	.	.	16d#'/Jk	.	.	.
=22	=22	=22	=22	=22	=22	=22	=22
(2C#/	<	2E/	<	8G#'/L	<	(2.cc#\	<
.	.	.	.	16r	.	.	.
.	.	.	.	16e'/k	.	.	.
.	.	.	.	8c#'/	.	.	.
.	.	.	.	16r	.	.	.
.	.	.	.	16e'/Jk	.	.	.
2BBn/)	.	2gn\	.	8Gn'/L	.	.	.
.	.	.	.	16r	.	.	.
.	.	.	.	16e'/k	.	.	.
.	.	.	.	8c#'/	.	8.dd#\L	.
.	.	.	.	16r	.	.	.
.	.	.	.	16e'/Jk	.	16ee\Jk)	.
=23	=23	=23	=23	=23	=23	=23	=23
4AA#/	f	4f#\	f	4c#/ 4e/	f	4cc#\ 4ee\	f
8.AA#/L	.	8.F#/L	.	8.cc#\L	.	8.ff#\L	.
16AA#/Jk	p	16F#/Jk	p	16cc#\Jk	p	16ee\Jk	p
8.BB/L	.	8.F#/L	.	8.bn/L	.	8.dd#\L	.
16C#/k	.	16E#/k	.	16g#/k	.	16cc#\k	.
8.C#/	.	8.E#/	.	8.g#/	.	8.bn\	.
16C#/Jk	.	16E#/Jk	.	16g#/Jk	.	16cc#\Jk	.
=24	=24	=24	=24	=24	=24	=24	=24
1F#	.	4F#/	.	4f#/	.	(8.a#\L	<
.	.	.	.	.	.	16gg#\k)	.
.	.	8.A#/L	.	8.c#/L	.	8.ff#\	>
.	.	16A#/Jk	.	16c#/Jk	.	16ee\Jk	.
.	.	8.B\L	.	8.d#/L	.	8.dd#\L	.
.	.	16B\k	.	16d#/k	.	16cc#\k	.
.	.	8.c#\	.	8.e#/	.	8.b\	.
.	.	16c#\Jk	.	16e#/Jk	.	16cc#\Jk	.
=25	=25	=25	=25	=25	=25	=25	=25
(8.F#\L	<	(4c#\	<	(4f#/	<	(4a#/	<
*clefC4	*clefG2	*	*	*	*	*	*
16gn\Jk)	.	.	.	.	.	.	.
8.f#\L	.	4f#\)	.	4a#/	.	4cc#\	.
16e\Jk	.	.	.	.	.	.	.
8.dn\L	.	(4f#\	.	4b\	.	4ddn\	.
16c#\k	.	.	.	.	.	.	.
8.B\	.	4g#\)	.	4ddn\)	.	4ee#\)	.
16c#\Jk	.	.	.	.	.	.	.
=26	=26	=26	=26	=26	=26	=26	=26
4..A#/	.	4f#\	.	4cc#\	.	[1ff#	.
.	.	8.F#/L	.	8.een\L	.	.	.
16B\	.	16G#/Jk	.	16dd#\Jk	.	.	.
8.c#\L	.	8.A#/L	.	8.cc#\L	.	.	.
16d#\k	.	16B/k	.	16b\k	.	.	.
8.e\	.	8.c#/	.	8.a#\	.	.	.
16c#\Jk	.	16A#/Jk	.	16ee\Jk	.	.	.
=27	=27	=27	=27	=27	=27	=27	=27
4..d#\	.	4..B/	.	4dd#\	.	8ff#\L]	.
.	.	.	.	.	.	(16gg#\L	p
.	.	.	.	.	.	16aa#\JJ	.
.	.	.	.	4r	p	16bb\LL	.
.	.	.	.	.	.	16ccc#\	.
.	.	.	.	.	.	16ddd#\	.
16c#\	p	16F#/	p	.	.	16eeen\JJ	.
8..B\L	.	8..D#/L	.	2r	.	[2fff#\)	.
32F#\kk	.	32D#/kk	.	.	.	.	.
8..B\	.	8..D#/	.	.	.	.	.
32c#\Jkk	.	32D#/Jkk	.	.	.	.	.
=28	=28	=28	=28	=28	=28	=28	=28
(4..d#\	.	(4..B/	.	1r	.	8fff#\L]	.
.	.	.	.	.	.	(16ggg#\L	.
.	.	.	.	.	.	16aaa#\JJ	.
.	.	.	.	.	.	16bbb\LL	.
.	.	.	.	.	.	16aaa#\	.
.	.	.	.	.	.	16ggg#\	.
16e\	.	16c#\	.	.	.	16fff#\JJ	.
2f#\)	.	2d#\)	.	.	.	16bbb\LL	.
.	.	.	.	.	.	16aaa#\	.
.	.	.	.	.	.	16ggg#\	.
.	.	.	.	.	.	16fff#\JJ	.
.	.	.	.	.	.	16eee\LL	.
.	.	.	.	.	.	16ddd#\	.
.	.	.	.	.	.	16ccc#\	.
.	.	.	.	.	.	16bb\JJ)	.
=29	=29	=29	=29	=29	=29	=29	=29
(4.g#\	>	(4.e\	>	1r	.	(16aa#\LL	.
.	.	.	.	.	.	16gg#\	.
.	.	.	.	.	.	16ff#\	.
.	.	.	.	.	.	16ee\JJ	.
.	.	.	.	.	.	16dd#\LL	.
.	.	.	.	.	.	16cc#\	.
8G#/)	.	8E/)	.	.	.	16ee\	.
.	.	.	.	.	.	[16gg#\JJ	.
(4B\	.	4F#/	.	.	.	16gg#\LL]	.
.	.	.	.	.	.	16b\	.
.	.	.	.	.	.	16dd#\	.
.	.	.	.	.	.	[16ff#\JJ	.
4A#/)	.	4F#/	.	.	.	16ff#\LL])	.
.	.	.	.	.	.	(16cc#\	.
.	.	.	.	.	.	16ff#\	.
.	.	.	.	.	.	16ee\JJ)	.
=30	=30	=30	=30	=30	=30	=30	=30
*clefF4	*clefF4	*	*	*	*	*	*
4..BB/	f	4..B/	f	4..f#/	f	4..dd#\	f
16C#/	.	16F#/	.	16e/	.	16cc#\	.
8..D#/L	.	8..F#/L	.	8..d#/L	.	8..b/L	.
32E/kk	.	32F#/kk	.	32c#/kk	.	32g#/kk	.
8..D#/	.	8..F#/	.	8..d#/	.	8..b/	.
32C#/Jkk	.	32F#/Jkk	.	32a/Jkk	.	32cc#/Jkk	.
=31	=31	=31	=31	=31	=31	=31	=31
(4..BB/	.	1F#	.	(4..b\	.	(4..dd#\	.
16AA#/	>	.	.	16cc#\	>	16ee\	>
8..GG#/L	.	.	.	2dd#\)	.	2ff#\)	.
32FF#/kk	.	.	.	.	.	.	.
8..EE/	.	.	.	.	.	.	.
32DD#/Jkk)	.	.	.	.	.	.	.
=32	=32	=32	=32	=32	=32	=32	=32
(8.CC#/L	p	(8.E/L	>	(4.ee\	p	(4.gg#\	p
16DD#/k	.	16F#/k	.	.	.	.	.
8EE/	.	8G#/	.	.	.	.	.
8EE#/J)	.	8B/J)	.	8dn/)	<	8g#/)	.
4FF#/	<	(4B/	<	(4d#/	.	(4b\	<
4F#\	.	4d#\)	.	4B#/)	.	4a/)	.
=33	=33	=33	=33	=33	=33	=33	=33
(4F#'\	p	4d#\	.	(4B#'/	p	(4a'/	p
4r	.	8.f#/L	p	4r	.	4r	.
.	.	16F#/Jk	.	.	.	.	.
4c#'\	.	4F#/	.	4e'/	.	4g#'/	.
4r	.	8.f#/L	.	4r	.	4r	.
.	.	16F#/Jk	.	.	.	.	.
=34	=34	=34	=34	=34	=34	=34	=34
4A#'\	.	4F#/	.	4c#'/	.	4gn'/	.
4r	.	8.f#/L	.	4r	.	4r	.
.	.	16F#/Jk	.	.	.	.	.
4B'\)	.	4F#/	.	4d#'/)	.	4f#'/)	.
4r	.	8.f#/L	.	4r	.	4r	.
.	.	16F#/Jk	.	.	.	.	.
=35	=35	=35	=35	=35	=35	=35	=35
*clefC4	*clefG2	*	*	*	*	*	*
(2an\	.	4F#/	.	(2b#\	.	(2dd#\	.
.	.	8.f#/L	.	.	.	.	.
.	.	16F#/Jk	.	.	.	.	.
12g#\L	.	4F#/	.	[4cc#\	.	[4ee\	.
12f#\	.	.	.	.	.	.	.
12e\J	.	.	.	.	.	.	.
12d#\L	.	8.f#/L	.	12cc#\L]	.	12ee\L]	.
12c#\	.	.	.	12dd#\	.	12ff#\	.
12B\J)	.	.	.	12ee\J)	.	12gg#\J)	.
.	.	16F#/Jk	.	.	.	.	.
=36	=36	=36	=36	=36	=36	=36	=36
4A#/	.	4F#/	<	(4ee\	.	(4gg#\	.
(4gn\	.	8.f#/L	.	4a#/	<	4cc#\	<
.	.	16F#/Jk	.	.	.	.	.
12f#\L	.	4F#/	.	4bn\	.	4dd#\	.
12e\	.	.	.	.	.	.	.
12d#\J	.	.	.	.	.	.	.
12c#\L	.	8.f#/L	.	4cc#\)	.	4ee\)	.
12B\	.	.	.	.	.	.	.
12A#\J)	.	.	.	.	.	.	.
.	.	16F#/Jk	.	.	.	.	.
=37	=37	=37	=37	=37	=37	=37	=37
(2B\	.	(2d#\	.	4b\	.	(12dd#\L	.
.	.	.	.	.	.	12ee\	.
.	.	.	.	.	.	12ff#\J	.
.	.	.	.	4r	p	12gg#\L	.
.	.	.	.	.	.	12aa#\	p
.	.	.	.	.	.	12bb\J	.
2F#/	p	2A#/	p	4r	.	12aa#\L	.
.	.	.	.	.	.	12gg#\	.
.	.	.	.	.	.	12ff#\J	.
.	.	.	.	(8.f#/L	.	12ee\L	.
.	.	.	.	.	.	12dd#\	.
.	.	.	.	.	.	12cc#\J)	.
.	.	.	.	16e/Jk	.	.	.
=38	=38	=38	=38	=38	=38	=38	=38
.	.	.	.	4d#/)	.	(12b\L	.
*clefF4	*clefF4	*	*	*	*	*	*
2G#\	.	2B/	.	.	.	.	.
.	.	.	.	.	.	12cc#\	.
.	.	.	.	.	.	12dd#\J	.
.	.	.	.	4r	.	12ee\L	.
.	.	.	.	.	.	12ff#\	.
.	.	.	.	.	.	12gg#\J	.
2D#\	.	2F#/	.	4r	.	12ff#\L	.
.	.	.	.	.	.	12ee\	.
.	.	.	.	.	.	12dd#\J	.
.	.	.	.	(8.B/L	.	12cc#\L	.
.	.	.	.	.	.	12b\	.
.	.	.	.	.	.	12a#\J)	.
.	.	.	.	16A#/Jk)	.	.	.
=39	=39	=39	=39	=39	=39	=39	=39
2E\	.	2G#/	.	(4..G#/	.	(12g#\L	.
.	.	.	.	.	.	12a#\	.
.	.	.	.	.	.	12b\J	.
.	.	.	.	.	.	12cc#\L	.
.	.	.	.	.	.	12dd#\	.
.	.	.	.	.	.	12ee\J	.
.	.	.	.	16A#/	.	.	.
2BB/)	.	2D#/)	.	[4B/	.	12dd#\L	.
.	.	.	.	.	.	12cc#\	.
.	.	.	.	.	.	12b\J	.
.	.	.	.	12B/L]	.	12a#/L	.
.	.	.	.	12c#/	.	12g#/	.
.	.	.	.	12d#/J)	.	12f#/J)	.
=40	=40	=40	=40	=40	=40	=40	=40
2C#/	.	(4A#/	.	(12e/L	.	2.e/	.
.	.	.	.	12d#/	.	.	.
.	.	.	.	[12c#/J)	.	.	.
.	.	12B/L	.	4c#/_	.	.	.
.	.	12A#/	.	.	.	.	.
.	.	12G#/J	.	.	.	.	.
(12F#\L	.	4F#/	.	4c#/]	.	.	.
12E\	.	.	.	.	.	.	.
12D#\J	.	.	.	.	.	.	.
12C#\L	.	[4c#/)	.	[4e/	.	[4ee\	.
12BB\	.	.	.	.	.	.	.
12AA#\J)	.	.	.	.	.	.	.
=41	=41	=41	=41	=41	=41	=41	=41
(12GG#/L	.	4c#/]	.	4e/]	.	4ee\]	.
12FF#/	.	.	.	.	.	.	.
12EE/J	.	.	.	.	.	.	.
12DD#/L	<	(4g#\	.	[4cc#\ [4ee\	.	[4eee\	.
12CC#/	.	.	.	.	.	.	.
12BBB#/J	.	.	.	.	.	.	.
12CC#/L	.	4a#\	<	4cc#\] 4ee\]	<	4eee\]	<
12DD#/	.	.	.	.	.	.	.
12EE/J	.	.	.	.	.	.	.
12FF#/L	.	4cc#\	.	([4f#\ 4ee\	.	(4eee\	.
12GG#/	.	.	.	.	.	.	.
12AA#/J	.	.	.	.	.	.	.
=42	=42	=42	=42	=42	=42	=42	=42
12BB/L	.	4b\	.	(4f#/]) 4dd#/	.	(4ddd#\)	.
12C#/	.	.	.	.	.	.	.
12D#/J	.	.	.	.	.	.	.
12E\L	.	4g#\)	.	&(4e/&)) 4cc#/	.	4ccc#\	.
12F#\	.	.	.	.	.	.	.
12G#\J	.	.	.	.	.	.	.
[2F#\)	f	(2d#\ 2f#\	f	(12b\L	f	[2bb\)	f
.	.	.	.	12cc#\	.	.	.
.	.	.	.	12dd#\J	.	.	.
.	.	.	.	12ee\L	.	.	.
.	.	.	.	12ff#\	.	.	.
.	.	.	.	12gg#\J)	.	.	.
=43	=43	=43	=43	=43	=43	=43	=43
1F#_	>	[1d#)	>	[1b [1ff#	.	(12bb\L]	.
.	.	.	.	.	.	12ccc#\	.
.	.	.	.	.	.	12ddd#\J	.
.	.	.	.	.	.	12eee\L	.
.	.	.	.	.	.	12fff#\	.
.	.	.	.	.	.	12ggg#\J	.
.	.	.	.	.	.	12fff#\L	.
.	.	.	.	.	.	12ggg#\	.
.	.	.	.	.	.	12aaa#\J	.
.	.	.	.	.	.	12bbb\L	.
.	.	.	.	.	.	12aaa#\	.
.	.	.	.	.	.	12ggg#\J	.
=44	=44	=44	=44	=44	=44	=44	=44
1F#_	.	1d#]	.	1b] 1ff#]	>	12fff#\L	.
.	.	.	.	.	.	12eee\	p
.	.	.	.	.	.	12ddd#\J	.
.	.	.	.	.	.	12ccc#\L	.
.	.	.	.	.	.	12bb\	.
.	.	.	.	.	.	12aa#\J	.
.	.	.	.	.	.	12gg#\L	.
.	.	.	.	.	.	12ff#\	.
.	.	.	.	.	.	12ee\J	.
.	.	.	.	.	.	12dd#\L	.
.	.	.	.	.	.	12cc#\	.
.	.	.	.	.	.	12b\J)	.
=45	=45	=45	=45	=45	=45	=45	=45
1F#_	p	[1c#	p	[1e	p	(12a#/L	.
.	.	.	.	.	.	12g#/	.
.	.	.	.	.	.	12f#/J	.
.	.	.	.	.	.	12e#/L	.
.	.	.	.	.	.	12f#/	.
.	.	.	.	.	.	12gn/J	.
.	.	.	.	.	.	12g#/L	.
.	.	.	.	.	.	12an/	.
.	.	.	.	.	.	12a#/J	.
.	.	.	.	.	.	12b/L	.
.	.	.	.	.	.	12b#/	.
.	.	.	.	.	.	12cc#/J)	.
=46	=46	=46	=46	=46	=46	=46	=46
1F#_	.	1c#_	.	1e_	.	(12ddn\L	.
.	.	.	.	.	.	12dd#\	.
.	.	.	.	.	.	12een\J	.
.	.	.	.	.	.	12ee#\L	.
.	.	.	.	.	.	12ff#\	.
.	.	.	.	.	.	12ggn\J	.
.	.	.	.	.	.	12gg#\L	.
.	.	.	.	.	.	12ff#\	.
.	.	.	.	.	.	12een\J	.
.	.	.	.	.	.	12dd#\L	.
.	.	.	.	.	.	12cc#\	.
.	.	.	.	.	.	12ee\J)	.
=47	=47	=47	=47	=47	=47	=47	=47
4F#\]	.	4c#\]	.	4e/]	.	(12bn\L	.
.	.	.	.	.	.	12a#\	.
.	.	.	.	.	.	12cc#\J	.
4r	.	4r	.	4r	.	12gn\L	.
.	.	.	.	.	.	12f#\	.
.	.	.	.	.	.	12a#\J	.
2r	.	2r	.	2r	.	12cc#\L	.
.	.	.	.	.	.	12ee\	.
.	.	.	.	.	.	12gg#\J	.
.	.	.	.	.	.	12ee#\L	.
.	.	.	.	.	.	12ff#\	.
.	.	.	.	.	.	12a#\J)	.
=48	=48	=48	=48	=48	=48	=48	=48
12BB'/L	.	12D#'/L	.	1r	.	([4b\	.
12BB'/	.	12D#'/	.	.	.	.	.
12BB'/J	.	12D#'/J	.	.	.	.	.
8BB'/	.	8D#'/	.	.	.	12b\L]	.
.	.	.	.	.	.	12ff#\	.
8r	.	8r	.	.	.	.	.
.	.	.	.	.	.	12dd#\J)	.
12BB'/L	.	12D#'/L	.	.	.	([4b\	.
12BB'/	.	12D#'/	.	.	.	.	.
12BB'/J	.	12D#'/J	.	.	.	.	.
8BB'/	.	8D#'/	.	.	.	12b\L]	.
.	.	.	.	.	.	12dd#\	.
8r	.	8r	.	.	.	.	.
.	.	.	.	.	.	12b\J)	.
=49	=49	=49	=49	=49	=49	=49	=49
12BB'/L	.	12E'/L	.	([4A#/	.	(2.en/	.
12BB'/	.	12E'/	.	.	.	.	.
12BB'/J	.	12E'/J	.	.	.	.	.
8BB'/	.	8E'/	.	12A#/L]	.	.	.
.	.	.	.	12e/	.	.	.
8r	.	8r	.	.	.	.	.
.	.	.	.	12c#/J)	.	.	.
12BB'/L	.	12E'/L	.	([4A#/	.	.	.
12BB'/	.	12E'/	.	.	.	.	.
12BB'/J	.	12E'/J	.	.	.	.	.
8BB'/	.	8E'/	.	12A#/L]	.	4a#/)	.
.	.	.	.	12c#/	.	.	.
8r	.	8r	.	.	.	.	.
.	.	.	.	12f#/J)	.	.	.
=50	=50	=50	=50	=50	=50	=50	=50
12BB'/L	.	12D#'/L	.	([4f#/	.	([4b\	.
12BB'/	.	12D#'/	.	.	.	.	.
12BB'/J	.	12D#'/J	.	.	.	.	.
8BB'/	.	8D#'/	.	12f#/L]	.	12b\L]	.
.	.	.	.	12d#/	.	12bb\	.
8r	.	8r	.	.	.	.	.
.	.	.	.	12f#/J)	.	12ff#\J)	.
12BB'/L	.	12D#'/L	.	([4B/	.	([4dd#\	.
12BB'/	.	12D#'/	.	.	.	.	.
12BB'/J	.	12D#'/J	.	.	.	.	.
8BB'/	.	8D#'/	.	12B/L]	.	12dd#\L]	.
.	.	.	.	12d#/	.	12ff#\	.
8r	.	8r	.	.	.	.	.
.	.	.	.	12f#/J)	.	12b\J)	.
=51	=51	=51	=51	=51	=51	=51	=51
12BB'/L	.	12E'/L	.	([4f#/	.	(2a#/	.
12BB'/	.	12E'/	.	.	.	.	.
12BB'/J	.	12E'/J	.	.	.	.	.
8BB'/	.	8E'/	.	12f#/L]	.	.	.
.	.	.	.	12ee/	.	.	.
8r	.	8r	.	.	.	.	.
.	.	.	.	12cc#/J)	.	.	.
12BB'/L	.	12E'/L	.	(12a#\L	.	4cc#\	.
12BB'/	.	12E'/	.	12ee\	.	.	.
12BB'/J	.	12E'/J	.	12cc#\J	.	.	.
8BB'/	.	8E'/	.	12a#\L	.	4ff#\)	.
.	.	.	.	12cc#\	.	.	.
8r	.	8r	.	.	.	.	.
.	.	.	.	12a#\J)	.	.	.
=52	=52	=52	=52	=52	=52	=52	=52
(2d#\	.	(2f#\	.	(2b/	.	[2ff#\	.
2c#\	.	2e\	.	2a#/	.	2ff#\]	.
=53	=53	=53	=53	=53	=53	=53	=53
2e\	.	2gn\	.	2cc#\	.	(2aa#\	.
2d#\)	.	2f#\)	.	2b\)	.	2bb\	.
=54	=54	=54	=54	=54	=54	=54	=54
(2f##\	.	(2a#\	.	(2ee\	.	2ccc#\	.
4g#\	.	4b\	.	4dd#\	.	4bb\	.
4e\)	.	4g#\)	.	8.ff#\L	.	8.ddd#\L	.
.	.	.	.	16ee\Jk)	.	16ccc#\Jk)	.
=55	=55	=55	=55	=55	=55	=55	=55
(2f#\	.	(2.f#\	.	(2dd#\	.	(2bb\	.
4F#\)	.	.	.	4cc#\)	.	4aa#\)	.
4r	.	4e\)	pp	4r	.	4r	.
=56	=56	=56	=56	=56	=56	=56	=56
(2BB/	pp	(2dn\	.	(2ff#\	pp	1r	.
[2GGn/)	<	(2B/)	.	[2e/) 2ee/	.	.	.
=57	=57	=57	=57	=57	=57	=57	=57
2GG/]	.	2A/)	<	2e/] 2cc#/	<	8aan\L	.
.	.	.	.	.	.	(16bb\L	.
.	.	.	.	.	.	16ccc#\JJ	.
.	.	.	.	.	.	16dddn\LL	.
.	.	.	.	.	.	16eee\	.
.	.	.	.	.	.	16fff#\	.
.	.	.	.	.	.	16gggn\JJ	.
2FF#/	f	2F#/ 2A/	f	2dn/ 2ddn/	f	[4aaa\)	f
.	.	.	.	.	.	(16aaa\LL]	.
.	.	.	.	.	.	16gggn\	.
.	.	.	.	.	.	16fff#\	.
.	.	.	.	.	.	16eee\JJ)	.
=58	=58	=58	=58	=58	=58	=58	=58
2AA/	ff	2F#/	ff	2dn/	ff	(16dddn\LL	ff
.	.	.	.	.	.	16ccc#\	.
.	.	.	.	.	.	16bb\	.
.	.	.	.	.	.	16aa\JJ	.
.	.	.	.	.	.	16ggn\LL	.
.	.	.	.	.	.	16ff#\	.
.	.	.	.	.	.	16ee\	.
.	.	.	.	.	.	16ddn\JJ	.
2AA/	f	4..Gn/	f	4..e/	f	16cc#/LL	f
.	.	.	.	.	.	16b/	.
.	.	.	.	.	.	16a/	.
.	.	.	.	.	.	16gn/JJ	.
.	.	.	.	.	.	16f#/LL	.
.	.	.	.	.	.	16e/	.
.	.	.	.	.	.	16dn/	.
.	.	16A/	.	16f#/	>	16c#/JJ)	.
=59	=59	=59	=59	=59	=59	=59	=59
12DDn'/L	>	4F#/	p	4dn/	p	([4dn/	p
12DD'/	.	.	.	.	.	.	.
12DD'/J	.	.	.	.	.	.	.
8DD'/	.	4r	.	4r	.	12d/L]	.
.	.	.	.	.	.	12a/	.
8r	.	.	.	.	.	.	.
.	.	.	.	.	.	12f#/J)	.
12DDn'/L	.	2r	.	2r	.	([4dn/	.
12DD'/	.	.	.	.	.	.	.
12DD'/J	.	.	.	.	.	.	.
8DD'/	.	.	.	.	.	12d/L]	.
.	.	.	.	.	.	12f#/	.
8r	.	.	.	.	.	.	.
.	.	.	.	.	.	12dn/J)	.
=60	=60	=60	=60	=60	=60	=60	=60
12DDn'/L	.	1r	.	([4gn/	.	(2B-/	.
12DD'/	.	.	.	.	.	.	.
12DD'/J	.	.	.	.	.	.	.
8DD'/	.	.	.	12g\L]	.	.	.
.	.	.	.	12ggn\	.	.	.
8r	.	.	.	.	.	.	.
.	.	.	.	12ee\J)	.	.	.
12DDn'/L	.	.	.	([4cc#\	.	4An/	.
12DD'/	.	.	.	.	.	.	.
12DD'/J	.	.	.	.	.	.	.
8DD'/	.	.	.	12cc#\L]	.	4c#/)	.
.	.	.	.	12ee\	.	.	.
8r	.	.	.	.	.	.	.
.	.	.	.	12gn\J)	.	.	.
=61	=61	=61	=61	=61	=61	=61	=61
12DDn'/L	.	([4Dn/	.	([4fn/	.	2dn/	.
12DD'/	.	.	.	.	.	.	.
12DD'/J	.	.	.	.	.	.	.
8DD'/	.	12D/L]	.	12f/L]	.	.	.
.	.	12A/	.	12a/	.	.	.
8r	.	.	.	.	.	.	.
.	.	12Fn/J)	.	12f/J)	.	.	.
12DD'/L	.	([4D/	.	([4dn/	.	2a\ 2ffn\	.
12DD'/	.	.	.	.	.	.	.
12DD'/J	.	.	.	.	.	.	.
8DD'/	.	12D/L]	.	12d/L]	.	.	.
.	.	12F/	.	12f/	.	.	.
8r	.	.	.	.	.	.	.
.	.	12D/J)	.	12dn/J)	.	.	.
=62	=62	=62	=62	=62	=62	=62	=62
12CCn'/L	.	[1E-	.	[4e-/	.	[4a\ [4ffn\	.
12CC'/	.	.	.	.	.	.	.
12CC'/J	.	.	.	.	.	.	.
8CC'/	.	.	.	(12e-/L]	.	(12a\L] 12ff\]	.
.	.	.	.	12a/	.	12eee-\	.
8r	.	.	.	.	.	.	.
.	.	.	.	12ccn/J)	.	12cccn\J)	.
12FFn'/L	.	.	.	(12ee-\L	.	[4aa\	.
12FF'/	.	.	.	12a\	.	.	.
12FF'/J	.	.	.	12ccn\J	.	.	.
8FF'/	.	.	.	12fn\L	.	(12aa\L]	.
.	.	.	.	12ffn\	.	12ccc\	.
8r	.	.	.	.	.	.	.
.	.	.	.	12f\J)	.	12fffn\J)	.
=63	=63	=63	=63	=63	=63	=63	=63
(2BB-/	pp	(12E-/L]	pp	4b-\	.	4bb-\	.
.	.	12Dn/)	.	.	.	.	.
.	.	12D/J	.	.	.	.	.
.	.	(12D/L	.	4r	.	12r	.
.	.	12En/)	.	.	.	12ddn\L	pp
.	.	12E'/J	.	.	.	12dd\J	.
2AA/)	.	(12E/L	.	12r	pp	(12dd\L	.
.	.	12Fn/)	.	12cn/L	.	12ccn\)	.
.	.	12F'/J	.	12c/J	.	12cc'\J	.
.	.	12F/L	.	(12c/L	.	4r	.
.	.	12F/	.	12dn/)	.	.	.
.	.	12F/J	.	12d'/J	.	.	.
=64	=64	=64	=64	=64	=64	=64	=64
(2Cn/	.	(12Fn/L	.	(12dn/L	.	4r	.
.	.	12E-/)	.	12e-/)	.	.	.
.	.	12E-'/J	.	12e-/J	.	.	.
.	.	(12E-/L	.	4r	.	12r	.
.	.	12F#/)	.	.	.	12ee-\L	.
.	.	12F#'/J	.	.	.	12ee-\J	.
2BBn/)	.	(12F#/L	.	12r	.	(12ee-\L	.
.	.	12Gn/)	.	12d/L	.	12ddn\)	.
.	.	12G'/J	.	12d/J	.	12dd'\J	.
.	.	12G/L	.	(12d/L	.	4r	.
.	.	12G/	.	12en/)	.	.	.
.	.	12G/J	.	12e'/J	.	.	.
=65	=65	=65	=65	=65	=65	=65	=65
(2Dn/	.	(12Gn/L	.	(12e/L	.	4r	.
.	.	12Fn/)	.	12fn/)	.	.	.
.	.	12F'/J	.	12f'/J	.	.	.
.	.	(12F/L	.	4r	.	12r	.
.	.	12G#/)	.	.	.	12ffn\L	.
.	.	12G#'/J	.	.	.	12ff\J	.
2C#/)	.	(12G#/L	.	12r	.	(12ff\L	.
.	.	12A/)	.	12e/L	.	12een\)	.
.	.	12A'/J	.	12e/J	.	12ee'\J	.
.	.	12A/L	.	(12e/L	.	4r	.
.	.	12A/	.	12f#/)	.	.	.
.	.	12A/J	.	12f#'/J	.	.	.
=66	=66	=66	=66	=66	=66	=66	=66
(2E\	.	(12A/L	.	(12f#/L	.	12r	.
.	.	12A#/)	<	12gn/)	<	12ggn\L	<
.	.	12A#'/J	.	12g'/J	.	12gg\J	.
.	.	12A#/L	.	12g/L	.	12gg\L	.
.	.	12A#/	.	12g/	.	12gg\	.
.	.	12A#/J	.	12g/J	.	12gg\J	.
2D#\)	<	(12A#/L	.	(12g/L	.	(12gg\L	.
.	.	12B/)	.	12f#/)	.	12ff#\)	.
.	.	12B'/J	.	12f#'/J	.	12ff#'\J	.
.	.	12B/L	.	(12f#/L	.	(12ff#\L	.
.	.	12B/	.	12g#/)	.	12gg#\)	.
.	.	12B'/J	.	12g#'/J	.	12gg#'\J	.
=67	=67	=67	=67	=67	=67	=67	=67
(2F#\	.	(12B/L	.	(12g#/L	.	(12gg#\L	.
.	.	12cn/)	.	12a/)	.	12aa\)	.
.	.	12c'/J	.	12a'/J	.	12aa'\J	.
.	.	12c\L	.	12a/L	.	12aa\L	.
.	.	12c\	.	12a/	.	12aa\	.
.	.	12c\J	.	12a/J	.	12aa\J	.
2E#\)	.	(12c\L	.	(12a/L	.	(12aa\L	.
.	.	12c#\)	.	12g#/)	.	12gg#\)	.
.	.	12c#'\J	.	12g#'/J	.	12gg#'\J	.
.	.	(12c#\L	.	(12g#/L	.	(12gg#\L	.
.	.	12dn\)	.	12b/)	.	12bb\)	.
.	.	12d'\J	.	12b'/J	.	12bb'\J	.
=68	=68	=68	=68	=68	=68	=68	=68
12G#\L	.	(12dn\L	.	(12b\L	.	(12bb\L	.
12G#\	.	12e#\)	.	12ddn\)	.	12dddn\)	.
12G#\J	.	12d\J 12b\	.	12dd'\J	.	12ddd'\J	.
12G#\L	.	12d\L 12b\	.	(12dd\L	.	(12ddd\L	.
12G#\	.	12d\ 12b\	.	12ee#\)	.	12eee#\)	.
12G#\J	.	12d\J 12b\	.	12ee#'\J	.	12eee#'\J	.
12G#\L	f	12d\L 12b\	f	(12ee#\L	f	(12eee#\L	f
12G#\	.	12d\ 12b\	.	12gg#\)	.	12ggg#\)	.
12G#\J	.	12d\J 12b\	.	12gg#'\J	.	12ggg#'\J	.
12G#\L	.	12d\L 12b\	.	(12gg#\L	.	(12ggg#\L	.
12G#\	.	12d\ 12b\	.	12bb\)	.	12bbb\)	.
12G#\J	.	12d\J 12b\	.	12ee#'\J	.	12eee#'\J	.
=69	=69	=69	=69	=69	=69	=69	=69
12A\L	ff	12c#\L	ff	12ff#/L	ff	[4fff#\	ff
12A\	.	12c#\	.	12f#/	.	.	.
12A\J	.	12c#\J	.	12f#/J	.	.	.
12A\L	.	12c#\L	.	12f#/L	.	12fff#\L]	.
12A\	.	12c#\	.	12f#/	.	12ccc#'\	.
12A\J	.	12c#\J	.	12f#/J	.	12aa'\J	.
12A\L	.	12c#\L	.	12f#/L	.	12ff#'\L	.
12A\	.	12c#\	.	12f#/	.	12cc#'\	.
12A\J	.	12c#\J	.	12f#/J	.	12a'\J	.
12A\L	.	12c#\L	.	12f#/L	.	12f#'/L	.
12A\	.	12c#\	.	12f#/	.	12c#'/	.
12A\J	.	12c#\J	.	12f#/J	.	12A'/J	.
=70	=70	=70	=70	=70	=70	=70	=70
12B\L	p	12dn\L	p	12gn/L	p	[4Gn/	p
12BB\	.	12B\	.	12dn/	.	.	.
12BB\J	.	12B\J	.	12d/J	.	.	.
8BB/	.	8B/	.	8d/	.	(12G/L]	.
.	.	.	.	.	.	12B/	.
8r	.	8r	.	8r	.	.	.
.	.	.	.	.	.	12dn/J)	.
12C#/L	.	[4E#/	.	12r	.	4r	.
12C#/	.	.	.	12B/L	.	.	.
12C#/J	.	.	.	12B/J	.	.	.
8C#/	.	12E#/L]	.	8B/	.	[4ccc#\	.
.	.	12G#/	.	.	.	.	.
8r	.	.	.	8r	.	.	.
.	.	12c#/J	.	.	.	.	.
=71	=71	=71	=71	=71	=71	=71	=71
12AA/L	f	12C#/L	f	12A/L 12f#/	f	4ccc#\]	f
12AA/	.	12C#/	.	12A/ 12f#/	.	.	.
12AA/J	.	12C#/J	.	12A/J 12f#/	.	.	.
12AA/L	.	12C#/L	.	12A/L 12f#/	.	12fff#'\L	.
12AA/	.	12C#/	.	12A/ 12f#/	.	12ccc#'\	.
12AA/J	.	12C#/J	.	12A/J 12f#/	.	12aa'\J	.
12AA/L	.	12C#/L	.	12A/L 12f#/	.	12ff#'\L	.
12AA/	.	12C#/	.	12A/ 12f#/	.	12cc#'\	.
12AA/J	.	12C#/J	.	12A/J 12f#/	.	12a'\J	.
12AA/L	.	12C#/L	.	12A/L 12f#/	.	12f#'/L	.
12AA/	.	12C#/	.	12A/ 12f#/	.	12c#'/	.
12AA/J	.	12C#/J	.	12A/J 12f#/	.	12A'/J	.
=72	=72	=72	=72	=72	=72	=72	=72
12BB/L	p	12Dn/L	p	12gn/L	p	[4Gn/	p
12BB/	.	12B/	.	12dn/	.	.	.
12BB/J	.	12B/J	.	12d/J	.	.	.
8BB/	.	8B/	.	8d/	.	12G/L]	.
.	.	.	.	.	.	12B/	.
8r	.	8r	.	8r	.	.	.
.	.	.	.	.	.	12dn/J	.
12C#/L	.	[4E#/	.	4r	.	4r	.
12C#/	.	.	.	.	.	.	.
12C#/J	.	.	.	.	.	.	.
8C#/	.	12E#/L]	.	4r	.	12e#/L	.
.	.	12G#/	.	.	.	12g#/	.
8r	.	.	.	.	.	.	.
.	.	12c#/J	.	.	.	12cc#/J	.
=73	=73	=73	=73	=73	=73	=73	=73
12r	.	[4F#/	.	1r	.	[4f#/	.
12AA/L	.	.	.	.	.	.	.
12AA/J	.	.	.	.	.	.	.
8AA/	.	12F#/L]	.	.	.	(12f#/L]	.
.	.	12A/	.	.	.	12a/	.
8r	.	.	.	.	.	.	.
.	.	12cn/J	.	.	.	12ccn/J)	.
12r	.	[4D#/	.	.	.	[4d#/	.
12BB/L	.	.	.	.	.	.	.
12BB/J	.	.	.	.	.	.	.
8BB/	.	12D#/L]	.	.	.	(12d#/L]	.
.	.	12F#/	.	.	.	12f#/	.
8r	.	.	.	.	.	.	.
.	.	12B/J	.	.	.	12b/J)	.
=74	=74	=74	=74	=74	=74	=74	=74
[2.BB/	.	12r	.	12r	.	[4ccn\	.
.	.	(12A/L	.	(12d#/L	.	.	.
.	.	12Gn/J	.	12e/J	.	.	.
.	.	[4F#/)	.	[4f#/)	.	12cc\L]	.
.	.	.	.	.	.	ddnq/	.
.	.	.	.	.	.	(12cc\	.
.	.	.	.	.	.	12b\J)	.
.	.	12F#/L]	.	12f#/L]	.	[4cc\	.
.	.	(12F#/	.	(12f#/	.	.	.
.	.	12En/J	.	12gn/J	.	.	.
12BB/L]	.	[4D#/)	.	[4a/)	.	12cc\L]	.
.	.	.	.	.	.	ddq/	.
12BB/	.	.	.	.	.	(12cc\	.
12BB/J	.	.	.	.	.	12b\J)	.
=75	=75	=75	=75	=75	=75	=75	=75
[2.BB/	.	12D#/L]	.	12a/L]	.	[4ccn\	.
.	.	(12A/	.	(12d#/	.	.	.
.	.	12Gn/J	.	12e/J	.	.	.
.	.	[4F#/)	.	[4f#/)	.	12cc\L]	.
.	.	.	.	.	.	ddnq/	.
.	.	.	.	.	.	(12cc\	.
.	.	.	.	.	.	12b\J)	.
.	.	12F#/L]	.	12f#/L]	.	[4cc\	.
.	.	(12F#/	.	(12f#/	.	.	.
.	.	12E/J	.	12gn/J	.	.	.
12BB/L]	.	12D#/L)	.	12a/L)	.	12cc\L]	.
.	.	.	.	.	.	ddq/	.
12BB/	.	12D#/	.	12a/	.	(12cc\	.
12BB/J	.	12D#/J	.	12a/J	.	12b\J)	.
=76	=76	=76	=76	=76	=76	=76	=76
1Cn	f	1E	f	1e 1a	f	1a 1ee	f
=77	=77	=77	=77	=77	=77	=77	=77
[2.BB/	p	8F#/	p	8b\	p	12dd#/L	p
.	.	.	.	.	.	dnq/	.
.	.	.	.	.	.	12cn'/	.
.	.	8r	.	8r	.	.	.
.	.	.	.	.	.	12B'/J	.
.	.	4r	.	12r	.	[2c/	.
.	.	.	.	Bq/	.	.	.
.	.	.	.	12A'/L	.	.	.
.	.	.	.	12G#'/J	.	.	.
.	.	12r	.	[4A/	.	.	.
.	.	12F#'/L	.	.	.	.	.
.	.	12E#'/J	.	.	.	.	.
12BB/L]	.	(12F#/L	.	12A/L]	.	(12c/L]	.
12BB/	.	12D#/	.	(12A/	.	12B/)	.
12BB/J	.	12En/J)	.	12Gn/J)	.	12B/J	.
=78	=78	=78	=78	=78	=78	=78	=78
1CCn 1Cn	f	1E	f	1A	f	1e	f
=79	=79	=79	=79	=79	=79	=79	=79
4BB/	.	(4F#'/	p	(4B'/	p	(4d#'/	p
8.B\L	p	4r	.	4r	.	4r	.
16BB\Jk	.	.	.	.	.	.	.
4BB/	.	4f#'\)	.	4a'/)	.	4d#'/) 4ccn'/	.
8.B\L	.	4r	.	4r	.	4r	.
16BB\Jk	.	.	.	.	.	.	.
=80	=80	=80	=80	=80	=80	=80	=80
4BB/	.	(4B'/	.	(4gn'/	.	(4e'/ 4b'/	.
8.B\L	.	4r	.	4r	.	4r	.
16BB\Jk	.	.	.	.	.	.	.
4BB/	.	4f#'\)	.	4d#'/)	.	4cn'/) 4a'/	.
8.B\L	.	4r	.	4r	.	4r	.
16BB\Jk	.	.	.	.	.	.	.
=81	=81	=81	=81	=81	=81	=81	=81
4BB/	>	(4B'/	>	(4e'/	>	(4B'/ 4gn'/	>
8.B\L	.	4r	.	4r	.	4r	.
16BB\Jk	.	.	.	.	.	.	.
4BB/	.	4cn'\)	.	4d#'/)	.	4A'/) 4f#'/	.
8.B\L	.	4r	.	4r	.	4r	.
16BB\Jk	.	.	.	.	.	.	.
=82	=82	=82	=82	=82	=82	=82	=82
4BB/	.	(4B'/	.	(4B'/	.	(4Gn'/ 4e'/	.
8.B\L	.	4r	.	4r	.	4r	.
16BB\Jk	.	.	.	.	.	.	.
4BB/	.	4A#'/)	.	4c#'/)	.	4Gn'/) 4e'/	.
8.B\L	.	4r	.	4r	.	4r	.
16BB\Jk	.	.	.	.	.	.	.
=83	=83	=83	=83	=83	=83	=83	=83
8.BB'/L	.	4F#/	.	4B/	pp	4d#/	.
16AA#'/k	pp	.	.	.	.	.	.
8.BB'/	.	4r	pp	4r	.	4r	pp
16AA#'/Jk	.	.	.	.	.	.	.
8.BB'/L	.	2r	.	[2ccn\	.	2r	.
16AA#'/k	.	.	.	.	.	.	.
8.BB'/	.	.	.	.	.	.	.
16AA#'/Jk	.	.	.	.	.	.	.
=84	=84	=84	=84	=84	=84	=84	=84
8.BB'/L	<	2e\	<	2cc\]	<	2r	.
16AAn'/k	.	.	.	.	.	.	.
8.BB'/	.	.	.	.	.	.	.
16AA'/Jk	.	.	.	.	.	.	.
8.BB'/L	.	2d#\	.	[2b\	f	2B/ 2f#/	f
16AA'/k	f	.	.	.	.	.	.
8.BB'/	.	.	.	.	.	.	.
16AA'/Jk	.	.	.	.	.	.	.
=85	=85	=85	=85	=85	=85	=85	=85
8.GG#'/L	.	4g#\	f	4b\]	>	(2e/	.
16BB'/k	p	.	.	.	.	.	.
8.AA'/	.	8r	p	(2b\	p	.	.
.	.	(8G#/	.	.	.	.	.
16GG#'/Jk	.	.	.	.	.	.	.
8.FF#'/L	.	2F#/)	.	.	.	2d#/	p
16EE'/k	.	.	.	.	.	.	.
8.DD#'/	.	.	.	4a/)	.	.	.
16CC#'/Jk	.	.	.	.	.	.	.
=86	=86	=86	=86	=86	=86	=86	=86
8.BBB#'/L	.	2G#/	.	(4g#/	.	2f#/	.
16GG#'/k	.	.	.	.	.	.	.
8.AA#'/	.	.	.	2dd#\	.	.	.
16BB#'/Jk	.	.	.	.	.	.	.
8.C#'/L	.	2C#/	.	.	.	2e/)	.
16BBn'/k	.	.	.	.	.	.	.
8.AAn'/	.	.	.	[4cc#\)	.	.	.
16GG#'/Jk	.	.	.	.	.	.	.
=87	=87	=87	=87	=87	=87	=87	=87
8.FF#'/L	.	(4A/	.	(4cc#\]	.	(2a/	.
16BB'/k	.	.	.	.	.	.	.
8.C#'/	.	4F#/	.	4ff#\	.	.	.
16D#'/Jk	.	.	.	.	.	.	.
8.E'/L	.	4G#/	.	4ee\	.	4g#/	.
16D#'/k	.	.	.	.	.	.	.
8.C#'/	.	4c#\)	.	8.gg#\L	.	8.b/L	.
16AA'/Jk	.	.	.	16ff#\Jk)	.	16a/Jk)	.
=88	=88	=88	=88	=88	=88	=88	=88
8.BB'\L	.	[2B/	.	(2ee\	.	(2g#/	.
16E'\k	.	.	.	.	.	.	.
8.G#'\	.	.	.	.	.	.	.
16A#'\Jk	.	.	.	.	.	.	.
8.B'\L	.	8B/]	.	4dd#\	.	4f#/)	.
.	.	8r	.	.	.	.	.
16An'\k	.	.	.	.	.	.	.
8.G#'\	.	4r	.	4ddn\)	.	4r	.
16F#'\Jk	.	.	.	.	.	.	.
=89	=89	=89	=89	=89	=89	=89	=89
8.E#'\L	.	4r	.	(2.cc#\	.	(2b/	.
16D#'\k	.	.	.	.	.	.	.
8.C#'/	.	(4G#/	.	.	.	.	.
16E#'\Jk	.	.	.	.	.	.	.
8.F#'\L	.	4F#/	.	.	.	2a/	.
16En'\k	.	.	.	.	.	.	.
8.D#'\	.	4A/)	.	8.b#\L	.	.	.
16C#'\Jk	.	.	.	16cc#\Jk)	.	.	.
=90	=90	=90	=90	=90	=90	=90	=90
8.BB#'/L	<	2G#/	<	(2dd#\	<	2f#/	<
16AA#'/k	.	.	.	.	.	.	.
8.GG#'/	.	.	.	.	.	.	.
16FF#'/Jk	.	.	.	.	.	.	.
8.EE'/L	.	2G#/	.	4ee\	.	2g#/)	.
16DD#'/k	.	.	.	.	.	.	.
8.CC#'/	.	.	.	4ff#\)	.	.	.
16BBB#'/Jk	.	.	.	.	.	.	.
=91	=91	=91	=91	=91	=91	=91	=91
8.CC#'/L	f	(4c#/	.	2ee\	.	2e/	.
16EE'/k	.	.	.	.	.	.	.
8.AA#'/	.	4A#/)	f	.	.	.	.
16C#'/Jk	.	.	.	.	.	.	.
8.BBn'\L	.	[4An/	.	(4aa\	f	4..f#/	f
16D#'\k	>	.	.	.	.	.	.
8.F#'\	.	8.A/L]	>	8.ff#\L	>	.	.
16B'\Jk	.	16B/Jk	.	16gg#\Jk)	.	16g#/	.
=92	=92	=92	=92	=92	=92	=92	=92
8EE'/L	p	4G#/	.	(2ee\	.	4e/	.
16r	.	.	.	.	.	.	.
16G#'/k	.	.	.	.	.	.	.
8E'/	.	4r	p	.	.	4r	p
16r	.	.	.	.	.	.	.
16G#'/Jk	.	.	.	.	.	.	.
8BB'\L	.	2r	.	2gg#\	p	2r	.
16r	.	.	.	.	.	.	.
16G#'\k	.	.	.	.	.	.	.
8E'\	.	.	.	.	.	.	.
16r	.	.	.	.	.	.	.
16G#'\Jk	.	.	.	.	.	.	.
=93	=93	=93	=93	=93	=93	=93	=93
8BB'/L	.	1r	.	(2.bb\)	.	(2b\	.
16r	.	.	.	.	.	.	.
16F#'\k	.	.	.	.	.	.	.
8D#'\	.	.	.	.	.	.	.
16r	.	.	.	.	.	.	.
16F#'\Jk	.	.	.	.	.	.	.
8BB'\L	.	.	.	.	.	2dd#\	.
16r	.	.	.	.	.	.	.
16An'\k	.	.	.	.	.	.	.
8F#'\	.	.	.	8.ccc#\L)	.	.	.
16r	.	.	.	.	.	.	.
16A'\Jk	.	.	.	16aa\Jk	.	.	.
=94	=94	=94	=94	=94	=94	=94	=94
8BB'\L	.	(2E/	.	4gg#\	.	2.ee\	.
16r	.	.	.	.	.	.	.
16G#'\k	.	.	.	.	.	.	.
8E'\	.	.	.	8.bb\L	.	.	.
16r	.	.	.	.	.	.	.
16G#'\Jk	.	.	.	16gg#\Jk)	.	.	.
8BB'\L	.	2G#/	.	4ee\	.	.	.
16r	.	.	.	.	.	.	.
16G#'\k	.	.	.	.	.	.	.
8E'\	.	.	.	4r	.	8.dd#\L)	.
16r	.	.	.	.	.	.	.
16G#'\Jk	.	.	.	.	.	16cc#\Jk	.
=95	=95	=95	=95	=95	=95	=95	=95
8BB'\L	.	2B/	.	1r	.	(4b\	.
16r	.	.	.	.	.	.	.
16A'\k	.	.	.	.	.	.	.
8F#'\	.	.	.	.	.	8.ff#\L	.
16r	.	.	.	.	.	.	.
16A'\Jk	.	.	.	.	.	16dd#\Jk	.
8BB'\L	.	2d#\)	.	.	.	4b\	.
16r	.	.	.	.	.	.	.
16A'\k	.	.	.	.	.	.	.
8F#'\	.	.	.	.	.	8.cc#\L	.
16r	.	.	.	.	.	.	.
16A'\Jk	.	.	.	.	.	16a\Jk)	.
=96	=96	=96	=96	=96	=96	=96	=96
8E'\L	.	(2.e\	.	(2e/	.	(4g#/	.
16r	.	.	.	.	.	.	.
16B'\k	.	.	.	.	.	.	.
8G#'\	.	.	.	.	.	8.b/L	.
16r	.	.	.	.	.	.	.
16B'\Jk	.	.	.	.	.	16g#/Jk	.
8E'\L	.	.	.	[2g#/)	.	4e/)	.
16r	.	.	.	.	.	.	.
16B'\k	.	.	.	.	.	.	.
8G#'\	.	8.dn\L)	.	.	.	4r	.
16r	.	.	.	.	.	.	.
16B'\Jk	.	16c#\Jk	.	.	.	.	.
=97	=97	=97	=97	=97	=97	=97	=97
8E'\L	.	(8.B/L	.	1g#_ [1b	.	(2ee\	.
16r	.	.	.	.	.	.	.
16dn'\k	.	16A/k	.	.	.	.	.
8B'\	.	8.G#/	.	.	.	.	.
16r	.	.	.	.	.	.	.
16d'\Jk	.	16F#/Jk	.	.	.	.	.
8E'\L	.	4E/	.	.	.	4gg#\	.
16r	.	.	.	.	.	.	.
16B'\k	.	.	.	.	.	.	.
8G#'\	.	4Dn/)	.	.	.	8.bb\L	.
16r	.	.	.	.	.	.	.
16B'\Jk	.	.	.	.	.	16ccc#\Jk	.
=98	=98	=98	=98	=98	=98	=98	=98
8E#\L	.	1C#	.	2.g#/] 2.b/]	.	8.bb\L	.
16r	.	.	.	.	.	.	.
16c#\k	.	.	.	.	.	16aa\k	.
8G#\	.	.	.	.	.	8.gg#\	.
16r	.	.	.	.	.	.	.
16c#\Jk	.	.	.	.	.	16ff#\Jk	.
8C#\L	.	.	.	.	.	2ee#\)	.
16r	.	.	.	.	.	.	.
16G#\k	.	.	.	.	.	.	.
8E#\	.	.	.	(8.cc#\L	.	.	.
16r	.	.	.	.	.	.	.
16G#\Jk	.	.	.	16b\Jk)	.	.	.
=99	=99	=99	=99	=99	=99	=99	=99
(2FF#/	<	8C#'/L	<	(8.a/L	<	1ff#	<
.	.	16r	.	.	.	.	.
.	.	16A'/k	.	16g#/k	.	.	.
.	.	8F#'/	.	8.f#/	.	.	.
.	.	16r	.	.	.	.	.
.	.	16A'/Jk	.	16e/Jk	.	.	.
2AA/)	.	8F#'/L	.	4d#/	.	.	.
.	.	16r	.	.	.	.	.
.	.	16A'/k	.	.	.	.	.
.	.	8F#'/	.	4c#/)	.	.	.
.	.	16r	.	.	.	.	.
.	.	16A'/Jk	.	.	.	.	.
=100	=100	=100	=100	=100	=100	=100	=100
4GG#/	f	4D#/	.	4B#/	f	4gg#\	.
8.BB#/L	.	8.D#/L	f	8.g#/L	.	8.gg#\L	f
16BB#/Jk	p	16D#/Jk	p	16g#/Jk	p	16ff#\Jk	p
8.C#/L	.	8.E/L	.	8.g#/L	.	8.een\L	.
16D#/k	.	16A#/k	.	16gn/k	.	16dd#\k	.
8.D#/	.	8.A#/	.	8.g/	.	8.cc#\	.
16D#/Jk	.	16A#/Jk	.	16g/Jk	.	16dd#\Jk	.
=101	=101	=101	=101	=101	=101	=101	=101
4GG#/	<	4G#/	<	4g#/	<	8.b#\L	<
.	.	.	.	.	.	16aa\k	.
8.BB#/L	.	8.D#/L	.	8.g#/L	.	8.gg#\	.
16BB#/Jk	.	16D#/Jk	.	16g#/Jk	.	16ff#\Jk	.
8.C#\L	.	8.E/L	.	8.g#/L	.	8.ee\L	.
16F#\k	.	16An/k	.	16a/k	.	16dd#\k	.
8.F#\	.	8.A/	.	8.a/	.	8.cc#\	.
16F#\Jk	.	16A/Jk	.	16d#/Jk 16a/	.	16ccn\Jk	.
=102	=102	=102	=102	=102	=102	=102	=102
4F#\	.	4A/	.	4d#/ 4a/	.	4bn\	.
8.D#\L	.	8.f#\L	.	8.b\L	.	8.bb\L	.
16D#\Jk	.	16f#\Jk	.	16b\Jk	.	16aa\Jk	.
8.E\L	.	8.g#\L	.	8.b/L	.	8.gg#\L	.
16F#\k	.	16c#\k	.	16a#/k	.	16ff#\k	.
8.F#\	.	8.c#\	.	8.a#/	.	8.ee\	.
16F#\Jk	.	16c#\Jk	.	16a#/Jk	.	16ff#\Jk	.
=103	=103	=103	=103	=103	=103	=103	=103
1Bn	.	4B/	.	4b\	.	(8.dd#\L	.
.	.	.	.	.	.	16cccn\k)	<
.	.	8.d#\L	.	8.f#/L	.	8.bb\	>
.	.	16d#\Jk	.	16f#/Jk	.	16aa\Jk	.
.	.	8.e\L	.	8.gn/L	.	8.ggn\L	.
.	.	16f#\k	.	16a#/k	.	16ff#\k	.
.	.	8.gn\	.	8.a#/	.	8.ee\	.
.	.	16f#\Jk	.	16a#/Jk	.	16ff#\Jk	.
=104	=104	=104	=104	=104	=104	=104	=104
(8.B\L	<	(4f#\	.	(4b\	<	(4dd#\	<
*clefC4	*clefG2	*	*	*	*	*	*
16ccn\Jk)	.	.	.	.	.	.	.
8.b\L	.	[4b\	<	4dd#\	.	4ff#\	.
16a\Jk	.	.	.	.	.	.	.
8.g#\L	.	4b\]	.	4ee\	.	4ggn\	.
16f#\k	.	.	.	.	.	.	.
8.e\	.	4cc#\)	.	4ggn\)	.	4aa#\)	.
16f#\Jk	.	.	.	.	.	.	.
=105	=105	=105	=105	=105	=105	=105	=105
8.d#\L	.	4f#\	.	4ff#\	.	[1bb	.
16e\k	.	.	.	.	.	.	.
8.f#\	.	8.d#\L	.	8.ff#\L	.	.	.
16g#\Jk	.	16e\Jk	.	16ee\Jk	.	.	.
8.a\L	.	8.f#\L	.	8.dd#\L	.	.	.
16d#\k	.	16B\k	.	16cc#\k	.	.	.
8.e\	.	8.c#\	.	8.b\	.	.	.
16f#\Jk	.	16d#\Jk	.	16aan\Jk	.	.	.
=106	=106	=106	=106	=106	=106	=106	=106
4..g#\	.	4..e\	.	4gg#\	.	8bb\L]	.
.	.	.	.	.	.	(16ccc#\L	p
.	.	.	.	.	.	16ddd#\JJ	.
.	.	.	.	4r	p	16eee\LL	.
.	.	.	.	.	.	16fff#\	.
.	.	.	.	.	.	16ggg#\	.
16f#\	p	16B/	p	.	.	16aaan\JJ)	.
8..e\L	.	8..G#/L	.	2r	.	[2bbb\	.
32B\kk	.	32G#/kk	.	.	.	.	.
8..e\	.	8..G#/	.	.	.	.	.
32f#\Jkk	.	32d#/Jkk	.	.	.	.	.
=107	=107	=107	=107	=107	=107	=107	=107
(4..g#\	.	(4..e\	.	1r	.	16bbb\LL]	.
.	.	.	.	.	.	(16aaa\	.
.	.	.	.	.	.	16ggg#\	.
.	.	.	.	.	.	16fff#\JJ	.
.	.	.	.	.	.	16eee\LL	.
.	.	.	.	.	.	16ddd#\	.
.	.	.	.	.	.	16ccc#\	.
16a\	.	16f#\	.	.	.	16bb\JJ	.
2b\)	.	2g#\)	.	.	.	16eee\LL	.
.	.	.	.	.	.	16ddd#\	.
.	.	.	.	.	.	16ccc#\	.
.	.	.	.	.	.	16bb\JJ	.
.	.	.	.	.	.	16aa\LL	.
.	.	.	.	.	.	16gg#\	.
.	.	.	.	.	.	16ff#\	.
.	.	.	.	.	.	16ee\JJ)	.
=108	=108	=108	=108	=108	=108	=108	=108
(4.cc#\	>	(4.a\	>	1r	.	(16dd#\LL	.
.	.	.	.	.	.	16cc#\	.
.	.	.	.	.	.	16b#\	.
.	.	.	.	.	.	16cc#\JJ	.
.	.	.	.	.	.	16ee#\LL	.
.	.	.	.	.	.	16ff#\	.
8c#\)	.	8A/)	.	.	.	16aa\	.
.	.	.	.	.	.	[16ccc#\JJ)	.
(4e\	.	4B/	.	.	.	(16ccc#\LL]	.
.	.	.	.	.	.	16een\	.
.	.	.	.	.	.	16gg#\	.
.	.	.	.	.	.	[16bb\JJ)	.
4d#\)	.	4B/	.	.	.	(16bb\LL]	.
.	.	.	.	.	.	16ff#\	.
.	.	.	.	.	.	16bb\	.
.	.	.	.	.	.	16aa\JJ)	.
=109	=109	=109	=109	=109	=109	=109	=109
*clefF4	*clefF4	*	*	*	*	*	*
4..E\	f	4..e\	f	4..b\	f	4..gg#\	.
16F#\	.	16B/	.	16a/	.	16ff#\	f
8..G#\L	.	8..B/L	.	8..g#/L	.	8..ee\L	.
32A\kk	.	32B/kk	.	32f#/kk	.	32b\kk	.
8..G#\	.	8..B/	.	8..g#/	.	8..ee\	.
32F#\Jkk	.	32B/Jkk	.	32dd#/Jkk	.	32ff#\Jkk	.
=110	=110	=110	=110	=110	=110	=110	=110
(4..E\	.	1B	>	(4..ee\	.	(4..gg#\	.
16D#/	>	.	.	16ff#\	>	16aa\	>
8..C#/L	.	.	.	2gg#\)	.	2bb\)	.
32BB/kk	.	.	.	.	.	.	.
8..AA/	.	.	.	.	.	.	.
32GG#/Jkk)	.	.	.	.	.	.	.
=111	=111	=111	=111	=111	=111	=111	=111
(8.FF#/L	.	(8.A/L	p	4.aa\	.	4.ccc#\	p
16GG#/k	p	16B/k	.	.	.	.	.
8AA/	.	8c#/	.	.	.	.	.
8AA#/J)	.	8Gn/J)	.	8e/	p	8cc#\	.
(4BB/	.	(4G#/	.	(4e/	.	(4ee\	.
4B\)	<	4g#\)	<	4b\)	<	4e#/) 4ddn/	<
=112	=112	=112	=112	=112	=112	=112	=112
(4B'\	.	4g#\	.	(4b'\	.	(4e#'/ 4ddn'/	.
4r	p	8.b\L	p	4r	p	4r	p
.	.	16B\Jk	.	.	.	.	.
4f#'\	.	4B/	.	4a'/	.	4cc#'\	.
4r	.	8.b\L	.	4r	.	4r	.
.	.	16B\Jk	.	.	.	.	.
=113	=113	=113	=113	=113	=113	=113	=113
4d#'\	.	4B/	.	4a'/	.	4ccn'\	.
4r	.	8.b\L	.	4r	.	4r	.
.	.	16B\Jk	.	.	.	.	.
4e'\)	.	4B/	.	4g#'/)	.	4b'\)	.
4r	.	8.b\L	.	4r	.	4r	.
.	.	16B\Jk	.	.	.	.	.
=114	=114	=114	=114	=114	=114	=114	=114
*clefC4	*clefG2	*	*	*	*	*	*
(2ddn\	.	4B/	.	(2ee#\	.	(2gg#\	.
.	.	8.b\L	.	.	.	.	.
.	.	16B\Jk	.	.	.	.	.
12cc#\L	.	4B/	.	[4ff#\	.	[4aa\	.
12b\	.	.	.	.	.	.	.
12a\J	.	.	.	.	.	.	.
12g#\L	.	8.b\L	.	12ff#\L]	.	12aa\L]	.
12f#\	.	.	.	12gg#\	.	12bb\	.
12e\J)	.	.	.	12aa\J)	.	12ccc#\J)	.
.	.	16B\Jk	.	.	.	.	.
=115	=115	=115	=115	=115	=115	=115	=115
(4d#\	.	4B/	.	(4aa\	<	(4ccc#\	<
4ccn\	.	8.b\L	<	4dd#\	.	4ff#\	.
.	.	16B\Jk	.	.	.	.	.
12b\L	.	4B/	.	4een\	.	4gg#\	.
12a\	.	.	.	.	.	.	.
12g#\J	.	.	.	.	.	.	.
12f#\L	.	8.b\L	.	4ff#\)	.	4aa\)	.
12e\	.	.	.	.	.	.	.
12d#\J)	.	.	.	.	.	.	.
.	.	16B\Jk	.	.	.	.	.
=116	=116	=116	=116	=116	=116	=116	=116
(2e\	.	(2g#\	.	4ee\	.	(12gg#\L	.
.	.	.	.	.	.	12aa\	p
.	.	.	.	.	.	12bb\J	.
.	.	.	.	4r	p	12ccc#\L	.
.	.	.	.	.	.	12ddd#\	.
.	.	.	.	.	.	12eee\J	.
2B\)	p	2d#\)	p	(4f#/	.	12ddd#\L	.
.	.	.	.	.	.	12ccc#\	.
.	.	.	.	.	.	12bb\J	.
.	.	.	.	8.b/L	.	12aa\L	.
.	.	.	.	.	.	12gg#\	.
.	.	.	.	.	.	12ff#\J)	.
.	.	.	.	16a/Jk	.	.	.
=117	=117	=117	=117	=117	=117	=117	=117
*clefF4	*clefF4	*	*	*	*	*	*
(2c#\	.	(2e\	.	4g#/)	.	(12ee\L	.
.	.	.	.	.	.	12ff#\	.
.	.	.	.	.	.	12gg#\J	.
.	.	.	.	4r	.	12aa\L	.
.	.	.	.	.	.	12bb\	.
.	.	.	.	.	.	12ccc#\J	.
2G#\)	.	2B/)	.	(4B/	.	12bb\L	.
.	.	.	.	.	.	12aa\	.
.	.	.	.	.	.	12gg#\J	.
.	.	.	.	8.e/L	.	12ff#\L	.
.	.	.	.	.	.	12ee\	.
.	.	.	.	.	.	12dd#\J)	.
.	.	.	.	16d#/Jk)	.	.	.
=118	=118	=118	=118	=118	=118	=118	=118
(2A\	.	(2c#/	.	(4..c#/	.	(12cc#\L	.
.	.	.	.	.	.	12dd#\	.
.	.	.	.	.	.	12ee\J	.
.	.	.	.	.	.	12ff#\L	.
.	.	.	.	.	.	12gg#\	.
.	.	.	.	.	.	12aa\J	.
.	.	.	.	16d#/	.	.	.
2E\)	.	2G#/)	.	[4e/	.	12gg#\L	.
.	.	.	.	.	.	12ff#\	.
.	.	.	.	.	.	12ee\J	.
.	.	.	.	12e/L]	.	12dd#\L	.
.	.	.	.	12f#/	.	12cc#\	.
.	.	.	.	12g#/J)	.	12b\J)	.
=119	=119	=119	=119	=119	=119	=119	=119
(2F#\	.	(4d#\	.	(12a/L	.	2.a/	.
.	.	.	.	12g#/	.	.	.
.	.	.	.	[12f#/J)	.	.	.
.	.	12e\L	.	4f#/_	.	.	.
.	.	12d#\	.	.	.	.	.
.	.	12c#\J	.	.	.	.	.
12B\L	.	2B/)	.	4f#/]	.	.	.
12A\	.	.	.	.	.	.	.
12G#\J	.	.	.	.	.	.	.
12F#\L	.	.	.	[4a/	.	[4ff#\	.
12E\	.	.	.	.	.	.	.
12D#\J)	.	.	.	.	.	.	.
=120	=120	=120	=120	=120	=120	=120	=120
(12C#/L	<	2.f#\	.	4a/]	.	4ff#\]	.
12BB/	.	.	.	.	.	.	.
12AA/J	.	.	.	.	.	.	.
12GG#/L	.	.	.	(2a/	.	(2aa\	.
12FF#/	.	.	.	.	.	.	.
12EE/J	.	.	.	.	.	.	.
12DD#/L	.	.	.	.	.	.	.
12CC#/	.	.	.	.	.	.	.
12BBB#/J	.	.	.	.	.	.	.
12CC#/L	.	[4a\	<	[4ff#\)	<	[4fff#\)	<
12DD#/	.	.	.	.	.	.	.
12EE/J)	.	.	.	.	.	.	.
=121	=121	=121	=121	=121	=121	=121	=121
(12FF#/L	.	(4a\]	.	(4ff#\]	.	(4fff#\]	.
12EE/	.	.	.	.	.	.	.
12DD#/J	.	.	.	.	.	.	.
12EE/L	.	4g#\	.	4b\ 4ee\	.	4eee\	.
12FF#/	.	.	.	.	.	.	.
12GG#/J	.	.	.	.	.	.	.
12AA/L	.	4e\	.	4a\ 4cc#\	.	4ccc#\	.
12BBn/	.	.	.	.	.	.	.
12C#/J	.	.	.	.	.	.	.
12D#\L	.	4f#\)	.	[4b\)	.	4bb\)	.
12E\	.	.	.	.	.	.	.
12F#\J)	.	.	.	.	.	.	.
=122	=122	=122	=122	=122	=122	=122	=122
(12E\L	.	(4g#\	.	(4b/]	.	(4gg#\	.
12F#\	.	.	.	.	.	.	.
12G#\J	.	.	.	.	.	.	.
12A\L	.	4c#\)	.	4a/)	.	4ff#\)	.
12B\	.	.	.	.	.	.	.
12c#\J)	.	.	.	.	.	.	.
[2B\	f	(12B\L	f	(12g#/L	f	[2ee\	f
.	.	12d#\	.	12f#/	.	.	.
.	.	12e\J	.	12g#/J	.	.	.
.	.	12f#\L	.	12a/L	.	.	.
.	.	12g#\	.	12b/	.	.	.
.	.	12a\J)	.	12cc#/J)	.	.	.
=123	=123	=123	=123	=123	=123	=123	=123
1B_	.	2g#\	.	2b\	.	12ee\L]	.
.	.	.	.	.	.	(12ff#\	.
.	.	.	.	.	.	12gg#\J	>
.	.	.	.	.	.	12aa\L	.
.	.	.	.	.	.	12bb\	.
.	.	.	.	.	.	12ccc#\J	.
.	.	[2e\	>	[2g#/	>	12bb\L	.
.	.	.	.	.	.	12ccc#\	.
.	.	.	.	.	.	12ddd#\J	.
.	.	.	.	.	.	12eee\L	.
.	.	.	.	.	.	12fff#\	.
.	.	.	.	.	.	12ggg#\J)	.
=124	=124	=124	=124	=124	=124	=124	=124
1B_	>	1e_	.	1g#_	.	(12aaa\L	.
.	.	.	.	.	.	12bbb\	p
.	.	.	.	.	.	12cccc#\J	.
.	.	.	.	.	.	12bbb\L	.
.	.	.	.	.	.	12aaa\	.
.	.	.	.	.	.	12ggg#\J	.
.	.	.	.	.	.	12fff#\L	.
.	.	.	.	.	.	12eee\	.
.	.	.	.	.	.	12ddd#\J	.
.	.	.	.	.	.	12ccc#\L	.
.	.	.	.	.	.	12bb\	.
.	.	.	.	.	.	12aa\J)	.
=125	=125	=125	=125	=125	=125	=125	=125
1B_	p	2e\]	p	2g#/]	p	(12gg#\L	.
.	.	.	.	.	.	12ff#\	.
.	.	.	.	.	.	12ee\J	.
.	.	.	.	.	.	12dd#\L	.
.	.	.	.	.	.	12cc#\	.
.	.	.	.	.	.	12b\J	.
.	.	[2f#\ [2a\	.	[2dd#\	.	12a/L	.
.	.	.	.	.	.	12g#/	.
.	.	.	.	.	.	12f#/J	.
.	.	.	.	.	.	12e/L	.
.	.	.	.	.	.	12d#/	.
.	.	.	.	.	.	12c#/J)	.
=126	=126	=126	=126	=126	=126	=126	=126
1B_	.	1f#_ 1a_	.	1dd#_	.	(12B/L	.
.	.	.	.	.	.	12cn/	.
.	.	.	.	.	.	12c#/J	.
.	.	.	.	.	.	12dn/L	.
.	.	.	.	.	.	12d#/	.
.	.	.	.	.	.	12e/J	.
.	.	.	.	.	.	12e#/L	.
.	.	.	.	.	.	12f#/	.
.	.	.	.	.	.	12gn/J	.
.	.	.	.	.	.	12g#/L	.
.	.	.	.	.	.	12a/	.
.	.	.	.	.	.	12a#/J)	.
=127	=127	=127	=127	=127	=127	=127	=127
1B_	.	1f#_ 1a_	.	1dd#_	.	(4b'\	.
.	.	.	.	.	.	4b#'\	.
.	.	.	.	.	.	4dd#'\	.
.	.	.	.	.	.	4cc#'\)	.
=128	=128	=128	=128	=128	=128	=128	=128
4B\]	<	4f#\] 4a\]	<	4dd#\]	<	(4bn'/	<
(4BB'/	.	(4F#'/	.	(4A'/	.	4an'/	.
4BB'/	.	4F#'/	.	4A'/	.	4f#'/	.
4BB'/)	.	4F#'/)	.	4A'/)	.	4d#'/)	.
=129	=129	=129	=129	=129	=129	=129	=129
12EE'/L	p	1G#	p	1B	p	([4dn/	p
12EE'/	.	.	.	.	.	.	.
12EE'/J	.	.	.	.	.	.	.
8EE'/	.	.	.	.	.	12d/L]	.
.	.	.	.	.	.	12b/	.
8r	.	.	.	.	.	.	.
.	.	.	.	.	.	12g#/J)	.
12EE'/L	.	.	.	.	.	([4dn/	.
12EE'/	.	.	.	.	.	.	.
12EE'/J	.	.	.	.	.	.	.
8EE'/	.	.	.	.	.	12d/L]	.
.	.	.	.	.	.	12e/	.
8r	.	.	.	.	.	.	.
.	.	.	.	.	.	12dn/J)	.
=130	=130	=130	=130	=130	=130	=130	=130
12EE'/L	.	(2E/	.	[2A/	.	([4cn/	.
12EE'/	.	.	.	.	.	.	.
12EE'/J	.	.	.	.	.	.	.
8EE'/	.	.	.	.	.	12c/L]	.
.	.	.	.	.	.	12e/	.
8r	.	.	.	.	.	.	.
.	.	.	.	.	.	12a/J)	.
12EE'/L	.	2D#/)	.	2A/]	.	([4d#/	.
12EE'/	.	.	.	.	.	.	.
12EE'/J	.	.	.	.	.	.	.
8EE'/	.	.	.	.	.	12d#/L]	.
.	.	.	.	.	.	12f#/	.
8r	.	.	.	.	.	.	.
.	.	.	.	.	.	12b/J)	.
=131	=131	=131	=131	=131	=131	=131	=131
12EE'/L	.	[4Dn/	.	2G#/	.	(2b\	.
12EE'/	.	.	.	.	.	.	.
12EE'/J	.	.	.	.	.	.	.
8EE'/	.	12D/L]	.	.	.	.	.
.	.	12B/	.	.	.	.	.
8r	.	.	.	.	.	.	.
.	.	12G#/J	.	.	.	.	.
12EE'/L	.	[4Dn/	.	2g#/	.	[2ee\)	.
12EE'/	.	.	.	.	.	.	.
12EE'/J	.	.	.	.	.	.	.
8EE'/	.	12D/L]	.	.	.	.	.
.	.	12E/	.	.	.	.	.
8r	.	.	.	.	.	.	.
.	.	12D/J	.	.	.	.	.
=132	=132	=132	=132	=132	=132	=132	=132
*	*	*	*	*	*	*^	*
12EE'/L	.	([4Cn/	.	(2ccn\	.	(2ee/]	1a	.
12EE'/	.	.	.	.	.	.	.	.
12EE'/J	.	.	.	.	.	.	.	.
8EE'/	.	12C/L]	.	.	.	.	.	.
.	.	12E/	.	.	.	.	.	.
8r	.	.	.	.	.	.	.	.
.	.	12A/J)	.	.	.	.	.	.
12EE'/L	.	([4D#/	.	2b\)	.	2ff#/)	.	.
12EE'/	.	.	.	.	.	.	.	.
12EE'/J	.	.	.	.	.	.	.	.
8EE'/	.	12D#/L]	.	.	.	.	.	.
.	.	12F#/	.	.	.	.	.	.
8r	.	.	.	.	.	.	.	.
.	.	12B/J)	.	.	.	.	.	.
*	*	*	*	*	*	*v	*v	*
=133	=133	=133	=133	=133	=133	=133	=133
12EE'/L	.	([4E/	.	4b\	.	(4g#\ 4ee\	.
12EE'/	.	.	.	.	.	.	.
12EE'/J	.	.	.	.	.	.	.
8EE'/	.	12E/L]	.	(4b/	.	2gg#\	.
.	.	12D#/	.	.	.	.	.
8r	.	.	.	.	.	.	.
.	.	12E/J)	.	.	.	.	.
12EE'/L	.	([4D#/	.	2a/)	.	.	.
12EE'/	.	.	.	.	.	.	.
12EE'/J	.	.	.	.	.	.	.
8EE'/	.	12D#/L]	.	.	.	4ff#\)	.
.	.	12C#/	.	.	.	.	.
8r	.	.	.	.	.	.	.
.	.	12D#/J)	.	.	.	.	.
=134	=134	=134	=134	=134	=134	=134	=134
12EE'/L	.	([4E/	.	(4g#/	.	(4ee\	.
12EE'/	.	.	.	.	.	.	.
12EE'/J	.	.	.	.	.	.	.
8EE'/	.	12E/L]	.	4b/	.	2gg#\	.
.	.	12D#/	.	.	.	.	.
8r	.	.	.	.	.	.	.
.	.	12E/J)	.	.	.	.	.
12EE'/L	.	([4D#/	.	2a/)	.	.	.
12EE'/	.	.	.	.	.	.	.
12EE'/J	.	.	.	.	.	.	.
8EE'/	.	12D#/L]	.	.	.	4ff#\)	.
.	.	12C#/	.	.	.	.	.
8r	.	.	.	.	.	.	.
.	.	12D#/J)	.	.	.	.	.
=135	=135	=135	=135	=135	=135	=135	=135
8EE/	.	(12E/L	<	2g#/	<	2ee\	<
.	.	12F#/	.	.	.	.	.
8r	.	.	.	.	.	.	.
.	.	12G#/J	.	.	.	.	.
4r	.	12A/L	.	.	.	.	.
.	.	12B/	.	.	.	.	.
.	.	12c#/J)	.	.	.	.	.
(12B\L	<	2B/	.	2ee\	.	2gg#\	.
12A\	.	.	.	.	.	.	.
12G#\J	.	.	.	.	.	.	.
12F#\L	.	.	.	.	.	.	.
12E\	.	.	.	.	.	.	.
12D#\J)	.	.	.	.	.	.	.
=136	=136	=136	=136	=136	=136	=136	=136
(12C#/L	.	(4A/	.	[2a\ [2aa\	.	[2ccc#\	.
12BB/	.	.	.	.	.	.	.
12AA/J	.	.	.	.	.	.	.
12GG#/L	.	4c#/	.	.	.	.	.
12FF#/	.	.	.	.	.	.	.
12EE/J)	.	.	.	.	.	.	.
8DD#/	.	8F#/)	.	8a\] 8aa\]	.	8ccc#\]	.
8r	p	8r	p	8r	p	8r	p
8EE/	.	8G#/	.	8g#/	.	8bb\	.
8r	<	8r	<	8r	<	8r	<
=137	=137	=137	=137	=137	=137	=137	=137
8FF#/	.	8A/	.	8d#/	.	8aa\	.
8r	.	8r	.	8r	.	8r	.
8GG#/	.	8B/	.	8e/	.	8gg#\	.
8r	.	8r	.	8r	.	8r	.
8AA/	.	8c#\	.	8f#/	.	8ff#\	.
8r	.	8r	.	8r	.	8r	.
8AA#/	.	8c#\	.	8gn/	.	8ee\	.
8r	.	8r	.	8r	.	8r	.
=138	=138	=138	=138	=138	=138	=138	=138
2BB/	ff	2B/	.	2g#/	.	2e/ 2ee/	.
[2Cn/	.	[2A/	ff	[2f#/ [2a/	ff	2dd#\	ff
=139	=139	=139	=139	=139	=139	=139	=139
2C/]	.	2A/]	.	2f#/] 2a/]	.	2ff#\	.
[2C#/	.	[2c#\	.	(2g#/	.	2e/ 2ee/	.
=140	=140	=140	=140	=140	=140	=140	=140
2C#/]	.	2c#\]	.	2e/) 2cc#/	.	2aa\	.
[2E#\	.	[2dn\	.	[2b\	.	4..gg#\	.
.	.	.	.	.	.	16aa\	.
=141	=141	=141	=141	=141	=141	=141	=141
2E#\]	.	2d\]	.	2b\]	.	(2gg#\	.
[2F#\	.	[2d#\	.	[2a/	.	4ff#\)	.
.	.	.	.	.	.	4r	.
=142	=142	=142	=142	=142	=142	=142	=142
2F#\]	.	2d#\]	.	2a/]	.	2bb\	.
[2BB#/	.	[2A/	.	[2f#/ [2dd#/	.	(2a\ 2aa\	.
=143	=143	=143	=143	=143	=143	=143	=143
2BB#/]	.	2A/]	.	2f#/] 2dd#/]	.	2a\) 2ff#\	.
2BBn/	.	2G#/	.	2e/ 2ee/	.	[2gg#\	.
.	.	.	.	.	.	bq/	.
=144	=144	=144	=144	=144	=144	=144	=144
1BB	>	(2E/	>	(2G#/	>	16gg#\LL]	>
.	.	.	.	.	.	(16ff#\	.
.	.	.	.	.	.	16ee\	.
.	.	.	.	.	.	16dd#\JJ	.
.	.	.	.	.	.	16cc#\LL	.
.	.	.	.	.	.	16b\	.
.	.	.	.	.	.	16a\	.
.	.	.	.	.	.	16g#\JJ	.
.	.	4..F#/	.	4..A/	.	16f#/LL	.
.	.	.	.	.	.	16e/	.
.	.	.	.	.	.	16d#/	.
.	.	.	.	.	.	16c#/JJ	.
.	.	.	.	.	.	16B/LL	.
.	.	.	.	.	.	16cc#/	.
.	.	.	.	.	.	16b/	.
.	.	16G#/)	.	16B/)	.	16d#/JJ)	.
=145	=145	=145	=145	=145	=145	=145	=145
12EE'/L	.	4E/	.	4G#/	.	([4e/	.
12EE'/	.	.	.	.	.	.	.
12EE'/J	.	.	.	.	.	.	.
8EE'/	.	12E/L	.	12g#/L	.	12e/L]	.
.	.	12E/	.	12g#/	.	12b/	.
8r	.	.	.	.	.	.	.
.	.	12E/J	.	12g#/J	.	12g#/J)	.
12EE'/L	.	4r	.	4r	.	([4dn/	.
12EE'/	.	.	.	.	.	.	.
12EE'/J	.	.	.	.	.	.	.
8EE'/	.	12G#/L	.	12b\L	.	12d/L]	.
.	.	12G#/	.	12b\	.	12e/	.
8r	.	.	.	.	.	.	.
.	.	12G#/J	.	12b\J	.	12dn/J)	.
=146	=146	=146	=146	=146	=146	=146	=146
12EE'/L	.	4r	.	4r	.	(4cn/	.
12EE'/	.	.	.	.	.	.	.
12EE'/J	.	.	.	.	.	.	.
8EE'/	.	12A/L	.	12cc#\L	.	12c#/L	.
.	.	12A/	.	12cc#\	.	12e/	.
8r	.	.	.	.	.	.	.
.	.	12A/J	.	12cc#\J	.	12a/J)	.
12EE'/L	.	4r	.	4r	.	([4d#/	.
12EE'/	.	.	.	.	.	.	.
12EE'/J	.	.	.	.	.	.	.
8EE'/	.	12A/L	.	12b\L	.	12d#/L]	.
.	.	12A/	.	12b\	.	12f#/	.
8r	.	.	.	.	.	.	.
.	.	12A/J	.	12b\J	.	12b/J)	.
=147	=147	=147	=147	=147	=147	=147	=147
12EE'/L	.	([4E/	.	(12b/L	.	4g#/	.
12EE'/	.	.	.	12e/	.	.	.
12EE'/J	.	.	.	12g#/J	.	.	.
8EE'/	.	12E/L]	.	([4b/)	.	12gg#\L	.
.	.	12B/	.	.	.	12gg#\	.
8r	.	.	.	.	.	.	.
.	.	12G#/J)	.	.	.	12gg#\J	.
12EE'/L	.	([4Dn/	.	12b/L]	.	4r	.
12EE'/	.	.	.	12g#/	.	.	.
12EE'/J	.	.	.	12b/J)	.	.	.
8EE'/	.	12D/L]	.	[4ee\	.	12gg#\L	.
.	.	12E/	.	.	.	12gg#\	.
8r	.	.	.	.	.	.	.
.	.	12Dn/J)	.	.	.	12gg#\J	.
=148	=148	=148	=148	=148	=148	=148	=148
12EE'/L	.	([4Cn/	.	(12ee\L]	.	4r	.
12EE'/	.	.	.	12a\	.	.	.
12EE'/J	.	.	.	12ccn\J)	.	.	.
8EE'/	.	12C/L]	.	4ee\	.	12aa\L	.
.	.	12E/	.	.	.	12aa\	.
8r	.	.	.	.	.	.	.
.	.	12A/J)	.	.	.	12aa\J	.
12EE'/L	.	([4D#/	.	(12ff#\L	.	4r	.
12EE'/	.	.	.	12a\	.	.	.
12EE'/J	.	.	.	12b\J	.	.	.
8EE'/	.	12D#/L]	.	12ff#\L	.	12bb\L	.
.	.	12F#/	.	12b\	.	12bb\	.
8r	.	.	.	.	.	.	.
.	.	12B/J)	.	12a\J)	.	[12bb\J	.
=149	=149	=149	=149	=149	=149	=149	=149
12EE'/L	.	([4E/	.	4g#/	.	12bb\L]	.
12EE'/	.	.	.	.	.	(12ee\	.
12EE'/J	.	.	.	.	.	12gg#\J	.
8EE'/	.	12E/L]	.	12r	.	[4bb\)	.
.	.	12D#/	.	(12g#/L	.	.	.
8r	.	.	.	.	.	.	.
.	.	12E/J)	.	12b/J	.	.	.
12EE'/L	.	([4D#/	.	4a/)	.	12bb\L]	.
12EE'/	.	.	.	.	.	(12ff#\	.
12EE'/J	.	.	.	.	.	12aa\J	.
8EE'/	.	12D#/L]	.	12r	.	[4bb\)	.
.	.	12C#/	.	(12a/L	.	.	.
8r	.	.	.	.	.	.	.
.	.	12D#/J)	.	12b/J	.	.	.
=150	=150	=150	=150	=150	=150	=150	=150
12EE'/L	>	[4E/	>	4g#/)	>	12bb\L]	>
12EE'/	.	.	.	.	.	(12ee\	.
12EE'/J	.	.	.	.	.	12gg#\J	.
8EE'/	.	12E/L]	.	12r	.	[4bb\)	.
.	.	12D#/	.	(12g#/L	.	.	.
8r	.	.	.	.	.	.	.
.	.	12E/J	.	12b/J	.	.	.
12EE'/L	.	[4D#/	.	4a/)	.	12bb\L]	.
12EE'/	.	.	.	.	.	(12ff#\	.
12EE'/J	.	.	.	.	.	12aa\J	.
8EE'/	.	12D#/L]	.	12r	.	4bb\)	.
.	.	12C#/	.	(12a/L	.	.	.
8r	.	.	.	.	.	.	.
.	.	12D#/J	.	12b/J)	.	.	.
=151	=151	=151	=151	=151	=151	=151	=151
1EE	.	(2E/	.	1g#	.	(12bb\L	.
.	.	.	.	.	.	12aa\	.
.	.	.	.	.	.	12gg#\J	.
.	.	.	.	.	.	12ff#\L	.
.	.	.	.	.	.	12ee\	.
.	.	.	.	.	.	12dd#\J	.
.	.	2G#/	.	.	.	12ee\L	.
.	.	.	.	.	.	12dd#\	.
.	.	.	.	.	.	12cc#\J	.
.	.	.	.	.	.	12b\L	.
.	.	.	.	.	.	12a#\	.
.	.	.	.	.	.	12cc#\J)	.
=152	=152	=152	=152	=152	=152	=152	=152
[1E	.	1G#)	.	(12b/L	.	1b	.
.	.	.	.	12a/	.	.	.
.	.	.	.	12g#/J	.	.	.
.	.	.	.	12f#/L	.	.	.
.	.	.	.	12e/	.	.	.
.	.	.	.	12d#/J	.	.	.
.	.	.	.	12e/L	.	.	.
.	.	.	.	12d#/	.	.	.
.	.	.	.	12c#/J	.	.	.
.	.	.	.	12B/L	.	.	.
.	.	.	.	12A#/	.	.	.
.	.	.	.	12c#/J)	.	.	.
=153	=153	=153	=153	=153	=153	=153	=153
2E\_	.	(12B/L	.	[1B [1e	.	[1g#	.
.	.	12A/	.	.	.	.	.
.	.	12G#/J	.	.	.	.	.
.	.	12F#/L	.	.	.	.	.
.	.	12E/	.	.	.	.	.
.	.	12D#/J)	.	.	.	.	.
(12E/L]	.	[2E/	.	.	.	.	.
12D#/	.	.	.	.	.	.	.
12C#/J	.	.	.	.	.	.	.
12BB/L	.	.	.	.	.	.	.
12AA#/	.	.	.	.	.	.	.
12C#/J)	.	.	.	.	.	.	.
=154	=154	=154	=154	=154	=154	=154	=154
(12BB/L	.	1E_	.	1B_ 1e_	.	1g#_	.
12AAn/	.	.	.	.	.	.	.
12GG#/J	.	.	.	.	.	.	.
12FF#/L	.	.	.	.	.	.	.
12EE/	.	.	.	.	.	.	.
12DD#/J	.	.	.	.	.	.	.
12EE/L	.	.	.	.	.	.	.
12DD#/	.	.	.	.	.	.	.
12FF#/J	.	.	.	.	.	.	.
12EE/L	.	.	.	.	.	.	.
12DD#/	.	.	.	.	.	.	.
12FF#/J)	.	.	.	.	.	.	.
=155	=155	=155	=155	=155	=155	=155	=155
(12EE/L	.	2E/]	.	2B/] 2e/]	.	2g#/]	.
12DD#/	.	.	.	.	.	.	.
12FF#/J	.	.	.	.	.	.	.
12EE/L	.	.	.	.	.	.	.
12DD#/	.	.	.	.	.	.	.
12FF#/J	.	.	.	.	.	.	.
12EE/L	.	8G#/	.	8B/	.	8e/	.
12DD#/	.	.	.	.	.	.	.
.	.	8r	.	8r	.	8r	.
12FF#/J	.	.	.	.	.	.	.
12EE/L	.	8G#/	.	8B/	.	8e/	.
12DD#/	.	.	.	.	.	.	.
.	.	8r	.	8r	.	8r	.
12FF#/J)	.	.	.	.	.	.	.
=156	=156	=156	=156	=156	=156	=156	=156
8EE/	.	8G#/	.	8B/	.	8e/	.
8r	.	8r	.	8r	.	8r	.
4r	.	4r	.	4r	.	4r	.
8EE/	.	8E/	.	8G#/	.	8B/	.
8r	.	8r	.	8r	.	8r	.
4r	.	4r	.	4r	.	4r	.
=157	=157	=157	=157	=157	=157	=157	=157
1EE;	<	1E;	<	1G#;	.	1B;	<
.	>	.	>	.	>	.	>
==	==	==	==	==	==	==	==
*-	*-	*-	*-	*-	*-	*-	*-
